; generated by Slic3r 1.2.9 on 2016-03-17 at 12:51:09

; external perimeters extrusion width = 0.40mm
; perimeters extrusion width = 0.40mm
; infill extrusion width = 0.74mm
; solid infill extrusion width = 0.68mm
; top infill extrusion width = 0.40mm

M190 S50 ; set bed temperature
M104 S214 ; set temperature
M42 S1 ; enciende el LED
G4 P500;
M42 S0 ; apaga el LED
G4 P500;
M42 S1 ; enciende el LED
G4 P100;
M42 S0 ; apaga el LED
G4 P100;
M42 S1 ; enciende el LED
G4 P100;
M42 S0 ; apaga el LED
G4 P400;
M42 S1 ; enciende el LED
G4 P500;
M42 S0 ; apaga el LED

G28 ; home all axes
M109 S214 ; wait for temperature to be reached
G21 ; set units to millimeters
G90 ; use absolute coordinates
M82 ; use absolute distances for extrusion
G92 E0
M106 S255
G1 E-1.50000 F3600.00000
G92 E0
G1 Z0.300 F5400.000
G1 X62.109 Y62.109 F5400.000
G1 E1.50000 F3600.00000
M204 S1000
G1 X62.312 Y61.905 E1.51049 F2160.000
G1 X63.207 Y61.141 E1.55335
G1 X63.673 Y60.802 E1.57433
G1 X64.677 Y60.187 E1.61719
G1 X65.190 Y59.926 E1.63817
G1 X66.277 Y59.475 E1.68103
G1 X66.825 Y59.297 E1.70201
G1 X67.940 Y59.030 E1.74374
G1 X68.539 Y58.932 E1.76585
G1 X69.712 Y58.840 E1.80871
G1 X130.288 Y58.840 E4.01480
G1 X131.461 Y58.932 E4.05766 F2160.000
G1 X132.030 Y59.023 E4.07864
G1 X133.145 Y59.290 E4.12037
G1 X133.723 Y59.475 E4.14248
G1 X134.810 Y59.926 E4.18534
G1 X135.323 Y60.187 E4.20631
G1 X136.327 Y60.802 E4.24918
G1 X136.793 Y61.141 E4.27016
G1 X137.688 Y61.905 E4.31302
G1 X138.095 Y62.312 E4.33399
G1 X138.859 Y63.207 E4.37686
G1 X139.198 Y63.673 E4.39784
G1 X139.813 Y64.677 E4.44070
G1 X140.074 Y65.190 E4.46168
G1 X140.525 Y66.278 E4.50455
G1 X140.703 Y66.825 E4.52552
G1 X140.977 Y67.970 E4.56838
G1 X141.068 Y68.539 E4.58936
G1 X141.171 Y70.000 E4.64271
G1 X141.171 Y130.000 E6.82782
G1 X141.068 Y131.462 E6.88118
G1 X140.977 Y132.030 E6.90215
G1 X140.703 Y133.175 E6.94502
G1 X140.525 Y133.723 E6.96599
G1 X140.074 Y134.810 E7.00885
G1 X139.813 Y135.323 E7.02983
G1 X139.198 Y136.327 E7.07269
G1 X138.859 Y136.793 E7.09367
G1 X138.095 Y137.688 E7.13654
G1 X137.688 Y138.095 E7.15751
G1 X136.792 Y138.859 E7.20038
G1 X136.327 Y139.198 E7.22135
G1 X135.323 Y139.813 E7.26422
G1 X134.810 Y140.074 E7.28519
G1 X133.751 Y140.513 E7.32694
G1 X133.175 Y140.703 E7.34903
G1 X132.030 Y140.977 E7.39189
G1 X131.461 Y141.068 E7.41287
G1 X130.288 Y141.160 E7.45573
G1 X69.712 Y141.160 E9.66182
G1 X68.538 Y141.068 E9.70469
G1 X67.970 Y140.977 E9.72566
G1 X66.855 Y140.710 E9.76739
G1 X66.277 Y140.525 E9.78950
G1 X65.190 Y140.074 E9.83236
G1 X64.677 Y139.813 E9.85334
G1 X63.673 Y139.198 E9.89620
G1 X63.207 Y138.859 E9.91718
G1 X62.312 Y138.095 E9.96004
G1 X61.905 Y137.688 E9.98102
G1 X61.141 Y136.793 E10.02388
G1 X60.802 Y136.327 E10.04486
G1 X60.187 Y135.323 E10.08772
G1 X59.926 Y134.810 E10.10870
G1 X59.487 Y133.751 E10.15043
G1 X59.297 Y133.175 E10.17254
G1 X59.023 Y132.030 E10.21540
G1 X58.932 Y131.461 E10.23638
G1 X58.840 Y130.288 E10.27925
G1 X58.829 Y70.000 E12.47484
G1 X58.932 Y68.539 E12.52819
G1 X59.023 Y67.970 E12.54917
G1 X59.297 Y66.825 E12.59203
G1 X59.475 Y66.277 E12.61301
G1 X59.926 Y65.190 E12.65587
G1 X60.187 Y64.677 E12.67685
G1 X60.802 Y63.673 E12.71971
G1 X61.141 Y63.207 E12.74069
G1 X61.905 Y62.312 E12.78355
G1 X62.066 Y62.151 E12.79186
G1 X62.345 Y62.345 F5400.000
G1 X62.530 Y62.160 E12.80139 F2160.000
G1 X63.425 Y61.396 E12.84425
G1 X63.849 Y61.088 E12.86331
G1 X64.852 Y60.473 E12.90617
G1 X65.319 Y60.236 E12.92523
G1 X66.406 Y59.785 E12.96809
G1 X66.904 Y59.624 E12.98715
G1 X68.018 Y59.356 E13.02889
G1 X68.565 Y59.267 E13.04907
G1 X69.738 Y59.175 E13.09194
G1 X130.262 Y59.175 E15.29610
G1 X131.435 Y59.267 E15.33896 F2160.000
G1 X131.952 Y59.349 E15.35803
G1 X133.066 Y59.616 E15.39976
G1 X133.594 Y59.785 E15.41995
G1 X134.681 Y60.236 E15.46281
G1 X135.148 Y60.473 E15.48187
G1 X136.151 Y61.088 E15.52473
G1 X136.575 Y61.396 E15.54379
G1 X137.470 Y62.160 E15.58665
G1 X137.840 Y62.530 E15.60571
G1 X138.604 Y63.425 E15.64858
G1 X138.912 Y63.849 E15.66764
G1 X139.527 Y64.852 E15.71050
G1 X139.764 Y65.319 E15.72956
G1 X140.215 Y66.406 E15.77243
G1 X140.376 Y66.904 E15.79148
G1 X140.651 Y68.048 E15.83434
G1 X140.733 Y68.565 E15.85340
G1 X140.836 Y70.000 E15.90580
G1 X140.836 Y130.000 E18.09090
G1 X140.733 Y131.435 E18.14331
G1 X140.651 Y131.952 E18.16236
G1 X140.376 Y133.097 E18.20523
G1 X140.215 Y133.594 E18.22428
G1 X139.764 Y134.681 E18.26714
G1 X139.527 Y135.148 E18.28620
G1 X138.912 Y136.151 E18.32907
G1 X138.604 Y136.575 E18.34813
G1 X137.840 Y137.470 E18.39099
G1 X137.470 Y137.840 E18.41005
G1 X136.575 Y138.604 E18.45292
G1 X136.151 Y138.912 E18.47197
G1 X135.148 Y139.527 E18.51483
G1 X134.681 Y139.764 E18.53389
G1 X133.623 Y140.203 E18.57562
G1 X133.096 Y140.376 E18.59581
G1 X131.952 Y140.651 E18.63867
G1 X131.435 Y140.733 E18.65774
G1 X130.262 Y140.825 E18.70060
G1 X69.738 Y140.825 E20.90477
G1 X68.565 Y140.733 E20.94764
G1 X68.048 Y140.651 E20.96669
G1 X66.934 Y140.384 E21.00842
G1 X66.406 Y140.215 E21.02861
G1 X65.319 Y139.764 E21.07147
G1 X64.852 Y139.527 E21.09053
G1 X63.849 Y138.912 E21.13340
G1 X63.425 Y138.604 E21.15245
G1 X62.530 Y137.840 E21.19531
G1 X62.160 Y137.470 E21.21437
G1 X61.396 Y136.575 E21.25724
G1 X61.088 Y136.151 E21.27630
G1 X60.473 Y135.148 E21.31916
G1 X60.236 Y134.681 E21.33822
G1 X59.797 Y133.623 E21.37995
G1 X59.624 Y133.096 E21.40014
G1 X59.349 Y131.952 E21.44300
G1 X59.267 Y131.435 E21.46206
G1 X59.175 Y130.262 E21.50493
G1 X59.164 Y70.000 E23.69956
G1 X59.267 Y68.565 E23.75196
G1 X59.349 Y68.048 E23.77102
G1 X59.624 Y66.904 E23.81388
G1 X59.785 Y66.406 E23.83294
G1 X60.236 Y65.319 E23.87580
G1 X60.473 Y64.852 E23.89486
G1 X61.088 Y63.849 E23.93772
G1 X61.396 Y63.425 E23.95679
G1 X62.160 Y62.530 E23.99965
G1 X62.303 Y62.388 E24.00699
G1 E22.50699 F3600.00000
G92 E0
G1 X82.244 Y123.064 F5400.000
G1 E1.50000 F3600.00000
G1 X81.966 Y124.198 E1.54251 F960.000
G1 X81.421 Y125.229 E1.58499
G1 X80.697 Y126.045 E1.62472
G1 X79.678 Y126.748 E1.66982
G1 X78.658 Y127.135 E1.70953
G1 X77.500 Y127.278 E1.75203
G1 X76.342 Y127.135 E1.79453
G1 X75.326 Y126.749 E1.83411
G1 X74.331 Y126.075 E1.87787
G1 X73.580 Y125.230 E1.91906
G1 X73.052 Y124.235 E1.96008
G1 X72.756 Y123.067 E2.00394
G1 X72.756 Y121.937 E2.04510
G1 X73.022 Y120.842 E2.08615
G1 X73.577 Y119.773 E2.13001
G1 X74.328 Y118.927 E2.17120
G1 X75.287 Y118.266 E2.21363
G1 X76.341 Y117.866 E2.25468
G1 X77.459 Y117.725 E2.29571 F960.000
G1 X78.655 Y117.864 E2.33957
G1 X79.713 Y118.266 E2.38076
G1 X80.672 Y118.927 E2.42320
G1 X81.420 Y119.770 E2.46425
G1 X81.948 Y120.765 E2.50527
G1 X82.244 Y121.933 E2.54913
G1 X82.244 Y123.004 E2.58814
G1 X81.908 Y123.023 F5400.000
G1 X81.650 Y124.077 E2.62767 F960.000
G1 X81.143 Y125.036 E2.66717
G1 X80.473 Y125.792 E2.70394
G1 X79.521 Y126.449 E2.74608
G1 X78.577 Y126.806 E2.78284
G1 X77.500 Y126.940 E2.82235
G1 X76.423 Y126.806 E2.86187
G1 X75.481 Y126.449 E2.89855
G1 X74.554 Y125.821 E2.93936
G1 X73.858 Y125.037 E2.97755
G1 X73.367 Y124.113 E3.01563
G1 X73.092 Y123.025 E3.05649
G1 X73.092 Y121.977 E3.09467
G1 X73.338 Y120.960 E3.13277
G1 X73.856 Y119.965 E3.17364
G1 X74.552 Y119.181 E3.21183
G1 X75.445 Y118.565 E3.25131
G1 X76.423 Y118.194 E3.28941
G1 X77.460 Y118.063 E3.32751 F960.000
G1 X78.575 Y118.193 E3.36837
G1 X79.555 Y118.565 E3.40657
G1 X80.448 Y119.181 E3.44605
G1 X81.142 Y119.963 E3.48415
G1 X81.633 Y120.887 E3.52224
G1 X81.908 Y121.975 E3.56310
G1 X81.908 Y122.963 E3.59911
G1 X81.573 Y122.983 F5400.000
G1 X81.334 Y123.957 E3.63565 F960.000
G1 X80.865 Y124.844 E3.67218
G1 X80.249 Y125.539 E3.70599
G1 X79.364 Y126.149 E3.74516
G1 X78.496 Y126.478 E3.77897
G1 X77.500 Y126.602 E3.81551
G1 X76.504 Y126.478 E3.85204
G1 X75.637 Y126.149 E3.88582
G1 X74.777 Y125.567 E3.92366
G1 X74.135 Y124.844 E3.95886
G1 X73.683 Y123.992 E3.99401
G1 X73.427 Y122.984 E4.03188
G1 X73.427 Y122.017 E4.06707
G1 X73.655 Y121.079 E4.10223
G1 X74.135 Y120.157 E4.14010
G1 X74.776 Y119.434 E4.17529
G1 X75.602 Y118.864 E4.21181
G1 X76.504 Y118.522 E4.24697
G1 X77.462 Y118.401 E4.28213 F960.000
G1 X78.495 Y118.521 E4.32000
G1 X79.398 Y118.864 E4.35519
G1 X80.224 Y119.434 E4.39171
G1 X80.865 Y120.156 E4.42688
G1 X81.317 Y121.008 E4.46203
G1 X81.573 Y122.016 E4.49990
G1 X81.573 Y122.923 E4.53291
G1 X81.883 Y123.236 F5400.000
G1 E3.03291 F3600.00000
G92 E0
G1 X117.756 Y122.983 F5400.000
G1 E1.50000 F3600.00000
G1 X117.756 Y121.937 E1.53808 F960.000
G1 X118.022 Y120.842 E1.57913
G1 X118.577 Y119.773 E1.62300
G1 X119.328 Y118.927 E1.66418
G1 X120.287 Y118.266 E1.70662
G1 X121.341 Y117.866 E1.74766
G1 X122.459 Y117.725 E1.78869 F960.000
G1 X123.655 Y117.864 E1.83256
G1 X124.713 Y118.266 E1.87375
G1 X125.672 Y118.927 E1.91619
G1 X126.420 Y119.770 E1.95724
G1 X126.948 Y120.765 E1.99825
G1 X127.244 Y121.933 E2.04212
G1 X127.244 Y123.064 E2.08331
G1 X126.966 Y124.198 E2.12583
G1 X126.421 Y125.229 E2.16831
G1 X125.697 Y126.045 E2.20803
G1 X124.678 Y126.748 E2.25313
G1 X123.658 Y127.135 E2.29284
G1 X122.500 Y127.278 E2.33534
G1 X121.342 Y127.135 E2.37784
G1 X120.326 Y126.749 E2.41742
G1 X119.331 Y126.075 E2.46119
G1 X118.580 Y125.230 E2.50237
G1 X118.052 Y124.235 E2.54339
G1 X117.756 Y123.043 E2.58812
G1 X118.092 Y122.983 F5400.000
G1 X118.092 Y121.977 E2.62474 F960.000
G1 X118.338 Y120.960 E2.66284
G1 X118.856 Y119.965 E2.70371
G1 X119.552 Y119.181 E2.74190
G1 X120.445 Y118.565 E2.78138
G1 X121.423 Y118.194 E2.81948
G1 X122.460 Y118.063 E2.85758 F960.000
G1 X123.575 Y118.193 E2.89844
G1 X124.555 Y118.565 E2.93664
G1 X125.448 Y119.181 E2.97612
G1 X126.142 Y119.963 E3.01422
G1 X126.633 Y120.887 E3.05231
G1 X126.908 Y121.975 E3.09317
G1 X126.908 Y123.023 E3.13137
G1 X126.650 Y124.077 E3.17089
G1 X126.143 Y125.036 E3.21040
G1 X125.473 Y125.792 E3.24717
G1 X124.521 Y126.449 E3.28930
G1 X123.577 Y126.806 E3.32606
G1 X122.500 Y126.940 E3.36558
G1 X121.423 Y126.806 E3.40509
G1 X120.481 Y126.449 E3.44178
G1 X119.554 Y125.821 E3.48258
G1 X118.858 Y125.037 E3.52077
G1 X118.367 Y124.113 E3.55885
G1 X118.096 Y123.042 E3.59909
G1 X118.427 Y122.983 F5400.000
G1 X118.427 Y122.017 E3.63425 F960.000
G1 X118.655 Y121.079 E3.66941
G1 X119.135 Y120.157 E3.70728
G1 X119.776 Y119.434 E3.74247
G1 X120.602 Y118.864 E3.77899
G1 X121.504 Y118.522 E3.81415
G1 X122.462 Y118.401 E3.84931 F960.000
G1 X123.495 Y118.521 E3.88718
G1 X124.398 Y118.864 E3.92237
G1 X125.224 Y119.434 E3.95889
G1 X125.865 Y120.156 E3.99406
G1 X126.317 Y121.008 E4.02921
G1 X126.573 Y122.016 E4.06708
G1 X126.573 Y122.983 E4.10227
G1 X126.334 Y123.957 E4.13881
G1 X125.865 Y124.844 E4.17534
G1 X125.249 Y125.539 E4.20916
G1 X124.364 Y126.149 E4.24832
G1 X123.496 Y126.478 E4.28213
G1 X122.500 Y126.602 E4.31867
G1 X121.504 Y126.478 E4.35520
G1 X120.637 Y126.149 E4.38898
G1 X119.777 Y125.567 E4.42682
G1 X119.135 Y124.844 E4.46202
G1 X118.683 Y123.992 E4.49717
G1 X118.442 Y123.041 E4.53288
G1 X118.066 Y122.812 F5400.000
G1 E3.03288 F3600.00000
G92 E0
G1 X123.371 Y106.864 F5400.000
G1 E1.50000 F3600.00000
G1 X123.371 Y99.594 E1.76475 F2400.000
G1 X136.179 Y99.594 E2.23118
G1 X136.179 Y106.864 E2.49593
G1 X136.629 Y106.864 E2.51232
G1 X136.629 Y129.966 E3.35366
G1 X136.544 Y131.037 E3.39278
G1 X136.309 Y132.019 E3.42958
G1 X135.903 Y133.010 E3.46856
G1 X135.361 Y133.895 E3.50636
G1 X134.685 Y134.685 E3.54423
G1 X133.895 Y135.361 E3.58210
G1 X133.008 Y135.904 E3.61996
G1 X132.048 Y136.302 E3.65783
G1 X131.037 Y136.544 E3.69569
G1 X129.966 Y136.629 E3.73481
G1 X70.034 Y136.629 E5.91743
G1 X68.963 Y136.544 E5.95654
G1 X67.981 Y136.309 E5.99334
G1 X66.990 Y135.903 E6.03232
G1 X66.105 Y135.361 E6.07013
G1 X65.315 Y134.685 E6.10799
G1 X64.639 Y133.895 E6.14586
G1 X64.096 Y133.008 E6.18372
G1 X63.709 Y132.075 E6.22053
G1 X63.455 Y131.035 E6.25951
G1 X63.371 Y129.966 E6.29856
G1 X63.371 Y99.594 E7.40465
G1 X76.179 Y99.594 E7.87108
G1 X76.179 Y106.864 E8.13583
G1 X93.371 Y106.864 E8.76196
G1 X93.371 Y99.594 E9.02671
G1 X106.179 Y99.594 E9.49314
G1 X106.179 Y106.864 E9.75789
G1 X123.311 Y106.864 E10.38183
G1 X123.036 Y106.528 F5400.000
G1 X123.036 Y99.258 E10.64658 F2400.000
G1 X136.514 Y99.258 E11.13746
G1 X136.514 Y106.528 E11.40221
G1 X136.964 Y106.528 E11.41859
G1 X136.964 Y129.979 E12.27264
G1 X136.877 Y131.089 E12.31320
G1 X136.629 Y132.123 E12.35190
G1 X136.203 Y133.162 E12.39280
G1 X135.633 Y134.093 E12.43255
G1 X134.923 Y134.923 E12.47234
G1 X134.093 Y135.633 E12.51213
G1 X133.161 Y136.204 E12.55192
G1 X132.152 Y136.622 E12.59171
G1 X131.089 Y136.877 E12.63150
G1 X129.979 Y136.964 E12.67206
G1 X70.021 Y136.964 E14.85564
G1 X68.911 Y136.877 E14.89620
G1 X67.877 Y136.629 E14.93490
G1 X66.838 Y136.203 E14.97580
G1 X65.907 Y135.633 E15.01555
G1 X65.077 Y134.923 E15.05534
G1 X64.367 Y134.093 E15.09513
G1 X63.796 Y133.161 E15.13492
G1 X63.389 Y132.179 E15.17362
G1 X63.123 Y131.088 E15.21453
G1 X63.036 Y129.979 E15.25505
G1 X63.036 Y99.258 E16.37384
G1 X76.514 Y99.258 E16.86472
G1 X76.514 Y106.528 E17.12947
G1 X93.036 Y106.528 E17.73115
G1 X93.036 Y99.258 E17.99590
G1 X106.514 Y99.258 E18.48678
G1 X106.514 Y106.528 E18.75153
G1 X122.976 Y106.528 E19.35102
G1 X122.700 Y106.192 F5400.000
G1 X122.700 Y98.923 E19.61577 F1200.000
G1 X136.850 Y98.923 E20.13109
G1 X136.850 Y106.192 E20.39584
G1 X137.300 Y106.192 E20.41223
G1 X137.300 Y129.992 E21.27898
G1 X137.210 Y131.142 E21.32098
G1 X136.949 Y132.226 E21.36158
G1 X136.504 Y133.314 E21.40441
G1 X135.905 Y134.290 E21.44611
G1 X135.161 Y135.161 E21.48782
G1 X134.290 Y135.905 E21.52954
G1 X133.314 Y136.504 E21.57125
G1 X132.256 Y136.942 E21.61296
G1 X131.142 Y137.210 E21.65468
G1 X129.992 Y137.300 E21.69668
G1 X70.008 Y137.300 E23.88121
G1 X68.858 Y137.210 E23.92321
G1 X67.774 Y136.949 E23.96382
G1 X66.686 Y136.504 E24.00664
G1 X65.710 Y135.905 E24.04834
G1 X64.839 Y135.161 E24.09006
G1 X64.095 Y134.290 E24.13177
G1 X63.496 Y133.314 E24.17349
G1 X63.070 Y132.284 E24.21409
G1 X62.790 Y131.141 E24.25691
G1 X62.700 Y129.992 E24.29890
G1 X62.700 Y98.923 E25.43040
G1 X76.850 Y98.923 E25.94572
G1 X76.850 Y106.192 E26.21047
G1 X92.700 Y106.192 E26.78770
G1 X92.700 Y98.923 E27.05245
G1 X106.850 Y98.923 E27.56778
G1 X106.850 Y106.192 E27.83253
G1 X122.640 Y106.192 E28.40757
G1 X123.100 Y106.192 F5400.000
G1 E26.90757 F3600.00000
G92 E0
G1 X113.623 Y107.007 F5400.000
G1 E1.50000 F3600.00000
G1 X124.685 Y118.069 E2.07113 F2400.000
G1 X123.917 Y117.778 F5400.000
G1 X113.147 Y107.007 E2.62721 F2400.000
G1 X112.671 Y107.007 E2.64459
G1 X123.337 Y117.674 E3.19529
G1 X122.799 Y117.611 E3.21508
G1 X112.195 Y107.007 E3.76255
G1 X111.719 Y107.007 E3.77993
G1 X122.318 Y117.606 E4.32715
G1 X121.896 Y117.660 E4.34270
G1 X111.244 Y107.007 E4.89267
G1 X110.768 Y107.007 E4.91004
G1 X121.473 Y117.713 E5.46275
G1 X121.107 Y117.823 E5.47669
G1 X110.292 Y107.007 E6.03508
G1 X109.816 Y107.007 E6.05245
G1 X120.762 Y117.954 E6.61761
G1 X120.418 Y118.085 E6.63108
G1 X109.340 Y107.007 E7.20300
G1 X108.865 Y107.007 E7.22037
G1 X120.107 Y118.250 E7.80080
G1 X119.825 Y118.444 E7.81329
G1 X108.389 Y107.007 E8.40375
G1 X107.913 Y107.007 E8.42112
G1 X119.543 Y118.638 E9.02160
G1 X119.262 Y118.832 E9.03409
G1 X107.437 Y107.007 E9.64460
G1 X106.961 Y107.007 E9.66197
G1 X119.037 Y119.083 E10.28544
G1 X118.813 Y119.335 E10.29774
G1 X106.486 Y107.007 E10.93422
G1 E9.43422 F3600.00000
G92 E0
G1 X106.035 Y99.896 F5400.000
G1 E1.50000 F3600.00000
G1 X105.877 Y99.738 E1.50816 F2400.000
G1 X105.401 Y99.738 E1.52553
G1 X106.035 Y100.372 E1.55825
G1 X106.035 Y100.847 E1.57562
G1 X104.925 Y99.738 E1.63291
G1 X104.450 Y99.738 E1.65028
G1 X106.035 Y101.323 E1.73213
G1 X106.035 Y101.799 E1.74950
