; generated by Slic3r 1.2.9 on 2016-05-24 at 13:35:29

; external perimeters extrusion width = 0.40mm
; perimeters extrusion width = 0.40mm
; infill extrusion width = 0.52mm
; solid infill extrusion width = 0.52mm
; top infill extrusion width = 0.40mm

M190 S50 ; set bed temperature
M104 S214 ; set temperature
M42 S1 ; enciende el LED
G4 P500;
M42 S0 ; apaga el LED
G4 P500;
M42 S1 ; enciende el LED
G4 P100;
M42 S0 ; apaga el LED
G4 P100;
M42 S1 ; enciende el LED
G4 P100;
M42 S0 ; apaga el LED
G4 P400;
M42 S1 ; enciende el LED

G28 ; home all axes
M109 S214 ; wait for temperature to be reached
G21 ; set units to millimeters
G90 ; use absolute coordinates
M82 ; use absolute distances for extrusion
G92 E0
M106 S255
G1 E-1.50000 F3600.00000
G92 E0
G1 Z0.300 F5400.000
G1 X67.605 Y74.142 F5400.000
G1 E1.50000 F3600.00000
M204 S1000
G1 X69.687 Y72.313 E1.59977 F2160.000
G1 X97.784 Y51.045 E2.86836
G1 X99.343 Y50.361 E2.92963
G1 X101.042 Y50.452 E2.99091
G1 X102.216 Y51.045 E3.03824 F2160.000
G1 X130.531 Y72.492 E4.31699
G1 X132.395 Y74.142 E4.40660
G1 X132.787 Y74.548 E4.42692
G1 X134.376 Y76.464 E4.51653
G1 X134.701 Y76.925 E4.53684
G1 X135.978 Y79.062 E4.62645
G1 X136.229 Y79.567 E4.64676
G1 X137.163 Y81.875 E4.73637
G1 X137.333 Y82.412 E4.75668
G1 X137.903 Y84.836 E4.84631
G1 X137.989 Y85.393 E4.86660
G1 X138.191 Y88.157 E4.96637
G1 X138.191 Y140.902 E6.86517
G1 X137.797 Y142.557 E6.92644
G1 X136.698 Y143.857 E6.98772
G1 X135.062 Y144.533 E7.05144
G1 X101.940 Y149.475 E8.25701
G1 X100.480 Y149.667 E8.31003
G1 X99.522 Y149.667 E8.34453
G1 X98.062 Y149.475 E8.39755
G1 X64.938 Y144.533 E9.60318
G1 X63.359 Y143.898 E9.66446
G1 X62.236 Y142.620 E9.72573
G1 X61.809 Y140.902 E9.78945
G1 X61.820 Y87.875 E11.69840
G1 X62.011 Y85.393 E11.78802
G1 X62.097 Y84.836 E11.80832
G1 X62.666 Y82.412 E11.89794
G1 X62.837 Y81.875 E11.91825
G1 X63.771 Y79.567 E12.00787
G1 X64.022 Y79.062 E12.02817
G1 X65.299 Y76.925 E12.11778
G1 X65.624 Y76.464 E12.13809
G1 X67.213 Y74.548 E12.22770
G1 X67.563 Y74.186 E12.24586
G1 X67.828 Y74.394 F5400.000
G1 X69.890 Y72.581 E12.34470 F2160.000
G1 X97.987 Y51.313 E13.61329
G1 X99.479 Y50.678 E13.67165
G1 X101.093 Y50.821 E13.73002
G1 X102.013 Y51.313 E13.76756 F2160.000
G1 X130.309 Y72.743 E15.04538
G1 X132.172 Y74.394 E15.13499
G1 X132.529 Y74.762 E15.15345
G1 X134.117 Y76.679 E15.24306
G1 X134.413 Y77.097 E15.26151
G1 X135.690 Y79.234 E15.35113
G1 X135.918 Y79.693 E15.36958
G1 X136.852 Y82.001 E15.45919
G1 X137.007 Y82.489 E15.47765
G1 X137.576 Y84.913 E15.56727
G1 X137.654 Y85.419 E15.58571
G1 X137.856 Y88.157 E15.68455
G1 X137.856 Y140.902 E17.58335
G1 X137.462 Y142.474 E17.64171
G1 X136.373 Y143.676 E17.70008
G1 X135.012 Y144.201 E17.75258
G1 X101.891 Y149.143 E18.95815
G1 X100.436 Y149.335 E19.01096
G1 X99.566 Y149.335 E19.04231
G1 X98.111 Y149.143 E19.09512
G1 X64.988 Y144.201 E20.30075
G1 X63.491 Y143.579 E20.35912
G1 X62.463 Y142.325 E20.41748
G1 X62.144 Y140.902 E20.46998
G1 X62.154 Y87.901 E22.37801
G1 X62.346 Y85.419 E22.46762
G1 X62.424 Y84.913 E22.48607
G1 X62.993 Y82.489 E22.57568
G1 X63.148 Y82.001 E22.59414
G1 X64.082 Y79.693 E22.68376
G1 X64.310 Y79.234 E22.70220
G1 X65.587 Y77.097 E22.79182
G1 X65.883 Y76.679 E22.81027
G1 X67.471 Y74.762 E22.89988
G1 X67.786 Y74.437 E22.91618
G1 E21.41618 F3600.00000
G92 E0
G1 X103.458 Y139.701 F5400.000
G1 E1.50000 F3600.00000
G1 X103.580 Y140.627 E1.53363 F960.000
G1 X103.458 Y141.554 E1.56727
G1 X103.100 Y142.417 E1.60090
G1 X102.531 Y143.158 E1.63453
G1 X101.790 Y143.727 E1.66816
G1 X100.927 Y144.084 E1.70180
G1 X100.001 Y144.206 E1.73543
G1 X99.075 Y144.084 E1.76906
G1 X98.232 Y143.735 E1.80188
G1 X97.472 Y143.161 E1.83619
G1 X96.902 Y142.417 E1.86994
G1 X96.544 Y141.554 E1.90357
G1 X96.422 Y140.627 E1.93720
G1 X96.544 Y139.701 E1.97083
G1 X96.902 Y138.838 E2.00447
G1 X97.470 Y138.097 E2.03810
G1 X98.211 Y137.528 E2.07173
G1 X99.075 Y137.171 E2.10537
G1 X99.978 Y137.052 E2.13818 F960.000
G1 X100.924 Y137.169 E2.17250
G1 X101.790 Y137.528 E2.20624
G1 X102.531 Y138.097 E2.23987
G1 X103.100 Y138.838 E2.27350
G1 X103.435 Y139.646 E2.30498
G1 X103.131 Y139.789 F5400.000
G1 X103.241 Y140.627 E2.33543 F960.000
G1 X103.131 Y141.466 E2.36588
G1 X102.807 Y142.248 E2.39633
G1 X102.292 Y142.919 E2.42678
G1 X101.621 Y143.434 E2.45724
G1 X100.840 Y143.757 E2.48769
G1 X100.001 Y143.868 E2.51814
G1 X99.162 Y143.757 E2.54859
G1 X98.401 Y143.442 E2.57827
G1 X97.711 Y142.920 E2.60940
G1 X97.195 Y142.248 E2.63992
G1 X96.871 Y141.466 E2.67037
G1 X96.761 Y140.627 E2.70082
G1 X96.871 Y139.789 E2.73127
G1 X97.195 Y139.007 E2.76172
G1 X97.710 Y138.336 E2.79218
G1 X98.381 Y137.821 E2.82263
G1 X99.162 Y137.498 E2.85308
G1 X99.980 Y137.390 E2.88276 F960.000
G1 X100.838 Y137.497 E2.91389
G1 X101.621 Y137.821 E2.94441
G1 X102.292 Y138.336 E2.97486
G1 X102.807 Y139.007 E3.00531
G1 X103.108 Y139.733 E3.03360
G1 X102.804 Y139.876 F5400.000
G1 X102.903 Y140.627 E3.06087 F960.000
G1 X102.804 Y141.378 E3.08814
G1 X102.514 Y142.078 E3.11541
G1 X102.053 Y142.679 E3.14269
G1 X101.452 Y143.140 E3.16996
G1 X100.752 Y143.430 E3.19722
G1 X100.001 Y143.529 E3.22449
G1 X99.250 Y143.430 E3.25176
G1 X98.569 Y143.148 E3.27830
G1 X97.949 Y142.680 E3.30626
G1 X97.488 Y142.078 E3.33355
G1 X97.198 Y141.378 E3.36082
G1 X97.099 Y140.627 E3.38809
G1 X97.198 Y139.876 E3.41536
G1 X97.488 Y139.177 E3.44263
G1 X97.949 Y138.576 E3.46990
G1 X98.550 Y138.114 E3.49717
G1 X99.250 Y137.825 E3.52444
G1 X99.981 Y137.728 E3.55098 F960.000
G1 X100.751 Y137.824 E3.57893
G1 X101.452 Y138.114 E3.60623
G1 X102.053 Y138.576 E3.63350
G1 X102.514 Y139.177 E3.66077
G1 X102.781 Y139.821 E3.68588
G1 X103.185 Y139.997 F5400.000
G1 E2.18588 F3600.00000
G92 E0
G1 X115.168 Y133.086 F5400.000
G1 E1.50000 F3600.00000
G1 X114.756 Y131.809 E1.54830 F2400.000
G1 X116.732 Y130.388 E1.63594
G1 X116.064 Y128.174 E1.71919
G1 X117.122 Y127.404 E1.76627
G1 X119.064 Y128.749 E1.85133
G1 X120.302 Y127.853 E1.90633
G1 X114.484 Y121.902 E2.20591
G1 X114.484 Y71.055 E4.03641
G1 X123.797 Y78.140 E4.45765
G1 X123.797 Y131.428 E6.37599
G1 X121.675 Y129.257 E6.48526
G1 X121.322 Y130.467 E6.53061
G1 X123.100 Y131.847 E6.61166
G1 X122.674 Y133.092 E6.65904
G1 X120.452 Y133.092 E6.73902
G1 X119.077 Y137.076 E6.89072
G1 X117.600 Y133.086 E7.04386
G1 X115.228 Y133.086 E7.12925
G1 X115.412 Y132.751 F5400.000
G1 X115.151 Y131.939 E7.15995 F2400.000
G1 X117.123 Y130.520 E7.24742
G1 X116.454 Y128.305 E7.33071
G1 X117.126 Y127.816 E7.36064
G1 X119.069 Y129.160 E7.44567
G1 X120.814 Y127.896 E7.52325
G1 X114.820 Y121.765 E7.83191
G1 X114.820 Y71.732 E9.63310
G1 X123.461 Y78.307 E10.02398
G1 X123.461 Y130.604 E11.90669
G1 X121.513 Y128.612 E12.00698
G1 X120.936 Y130.592 E12.08123
G1 X122.705 Y131.965 E12.16186
G1 X122.434 Y132.757 E12.19198
G1 X120.213 Y132.757 E12.27194
G1 X119.066 Y136.079 E12.39847
G1 X117.833 Y132.751 E12.52626
G1 X115.472 Y132.751 E12.61125
G1 X115.657 Y132.415 F5400.000
G1 X115.545 Y132.069 E12.62435 F960.000
G1 X117.514 Y130.653 E12.71165
G1 X116.844 Y128.436 E12.79499
G1 X117.131 Y128.227 E12.80777
G1 X119.073 Y129.571 E12.89278
G1 X120.923 Y128.232 E12.97500
G1 X121.215 Y128.438 E12.98786
G1 X120.550 Y130.717 E13.07335
G1 X122.310 Y132.083 E13.15356
G1 X122.194 Y132.421 E13.16642
G1 X119.974 Y132.421 E13.24635
G1 X119.055 Y135.083 E13.34773
G1 X118.067 Y132.415 E13.45015
G1 X115.717 Y132.415 E13.53475
G1 X115.301 Y132.490 F5400.000
G1 E12.03475 F3600.00000
G92 E0
G1 X123.125 Y129.781 F5400.000
G1 E1.50000 F3600.00000
G1 X115.156 Y121.629 E1.91042 F1200.000
G1 X115.156 Y72.409 E3.68232
G1 X123.125 Y78.473 E4.04283
G1 X123.125 Y129.721 E5.88775
G1 X122.923 Y130.126 F5400.000
G1 E4.38775 F3600.00000
G92 E0
G1 X111.481 Y127.957 F5400.000
G1 E1.50000 F3600.00000
G1 X100.125 Y127.957 E1.90883 F2400.000
G1 X100.080 Y128.098 E1.91414
G1 X100.176 Y128.165 E1.91836
G1 X99.504 Y130.467 E2.00468
G1 X101.283 Y131.847 E2.08572
G1 X100.856 Y133.092 E2.13310
G1 X98.635 Y133.092 E2.21308
G1 X97.260 Y137.076 E2.36478
G1 X95.782 Y133.086 E2.51792
G1 X93.350 Y133.086 E2.60546
G1 X92.939 Y131.809 E2.65377
G1 X94.915 Y130.388 E2.74140
G1 X94.247 Y128.174 E2.82465
G1 X94.354 Y128.096 E2.82942
G1 X94.308 Y127.957 E2.83468
G1 X78.576 Y127.957 E3.40103
G1 X78.576 Y123.343 E3.56714
G1 X79.904 Y122.957 E3.61693
G1 X80.482 Y123.866 E3.65570
G1 X80.786 Y124.221 E3.67254
G1 X81.575 Y124.853 E3.70893
G1 X82.450 Y125.280 E3.74398
G1 X83.397 Y125.542 E3.77935
G1 X84.383 Y125.660 E3.81511
G1 X85.378 Y125.652 E3.85091
G1 X86.356 Y125.505 E3.88653
G1 X87.291 Y125.204 E3.92188
G1 X88.158 Y124.706 E3.95789
G1 X88.510 Y124.403 E3.97459
G1 X88.836 Y124.035 E3.99230
G1 X89.103 Y123.628 E4.00982
G1 X89.298 Y123.195 E4.02692
G1 X89.409 Y122.748 E4.04350
G1 X89.427 Y122.289 E4.06003
G1 X89.359 Y121.826 E4.07689
G1 X89.219 Y121.370 E4.09405
G1 X89.018 Y120.936 E4.11126
G1 X88.759 Y120.547 E4.12808
G1 X88.435 Y120.211 E4.14490
G1 X88.065 Y119.937 E4.16146
G1 X86.761 Y119.241 E4.21470
G1 X84.782 Y118.904 E4.28696
G1 X83.261 Y119.152 E4.34242
G1 X82.012 Y119.556 E4.38968
G1 X81.482 Y119.854 E4.41157
G1 X80.985 Y120.242 E4.43429
G1 X80.563 Y120.704 E4.45679
G1 X79.915 Y121.752 E4.50116
G1 X78.576 Y121.371 E4.55125
G1 X78.576 Y110.636 E4.93769
G1 X76.725 Y110.636 E5.00434
G1 X75.350 Y114.620 E5.15604
G1 X73.872 Y110.631 E5.30918
G1 X71.440 Y110.631 E5.39672
G1 X71.029 Y109.354 E5.44503
G1 X73.005 Y107.932 E5.53267
G1 X72.337 Y105.718 E5.61591
G1 X73.394 Y104.948 E5.66300
G1 X75.337 Y106.293 E5.74805
G1 X77.190 Y104.951 E5.83043
G1 X78.266 Y105.709 E5.87781
G1 X77.595 Y108.011 E5.96413
G1 X78.576 Y108.773 E6.00887
G1 X78.576 Y94.154 E6.53515
G1 X85.983 Y101.762 E6.91739
G1 X87.742 Y100.496 E6.99542
G1 X87.074 Y98.283 E7.07867
G1 X88.131 Y97.513 E7.12575
G1 X90.074 Y98.858 E7.21081
G1 X91.176 Y98.060 E7.25979
G1 X88.092 Y94.906 E7.41859
G1 X88.092 Y69.118 E8.34694
G1 X97.229 Y62.151 E8.76058
G1 X97.229 Y104.252 E10.27620
G1 X92.631 Y99.548 E10.51299
G1 X92.332 Y100.576 E10.55151
G1 X94.110 Y101.956 E10.63255
G1 X93.684 Y103.201 E10.67993
G1 X91.462 Y103.201 E10.75991
G1 X90.394 Y106.295 E10.87772
G1 X100.437 Y116.612 E11.39605
G1 X102.171 Y115.364 E11.47294
G1 X101.503 Y113.151 E11.55619
G1 X102.560 Y112.381 E11.60327
G1 X104.503 Y113.726 E11.68833
G1 X105.667 Y112.883 E11.74007
G1 X101.315 Y108.431 E11.96418
G1 X101.315 Y61.035 E13.67045
G1 X110.539 Y68.053 E14.08771
G1 X110.539 Y117.866 E15.88098
G1 X107.085 Y114.333 E16.05888
G1 X106.761 Y115.443 E16.10053
G1 X108.539 Y116.823 E16.18157
G1 X108.113 Y118.069 E16.22896
G1 X105.891 Y118.069 E16.30893
G1 X104.835 Y121.129 E16.42548
G1 X111.439 Y127.914 E16.76635
G1 E15.26635 F3600.00000
G92 E0
G1 X100.888 Y131.965 F5400.000
G1 E1.50000 F3600.00000
G1 X100.616 Y132.757 E1.53012 F960.000
G1 X98.395 Y132.757 E1.61008
G1 X97.249 Y136.079 E1.73662
G1 X96.016 Y132.751 E1.86440
G1 X93.595 Y132.751 E1.95155
G1 X93.333 Y131.939 E1.98225
G1 X95.305 Y130.520 E2.06972
G1 X94.637 Y128.305 E2.15301
G1 X95.309 Y127.816 E2.18294
G1 X97.251 Y129.160 E2.26797
G1 X99.103 Y127.819 E2.35028
G1 X99.786 Y128.301 E2.38039
G1 X99.118 Y130.592 E2.46630
G1 X100.840 Y131.928 E2.54476
G1 X100.492 Y132.083 F5400.000
G1 X100.377 Y132.421 E2.55762 F960.000
G1 X98.156 Y132.421 E2.63755
G1 X97.237 Y135.083 E2.73893
G1 X96.249 Y132.415 E2.84135
G1 X93.839 Y132.415 E2.92811
G1 X93.727 Y132.069 E2.94121
G1 X95.696 Y130.653 E3.02851
G1 X95.027 Y128.436 E3.11185
G1 X95.314 Y128.227 E3.12463
G1 X97.255 Y129.571 E3.20964
G1 X99.105 Y128.232 E3.29186
G1 X99.397 Y128.438 E3.30472
G1 X98.732 Y130.717 E3.39021
G1 X100.445 Y132.046 E3.46826
G1 X100.815 Y132.235 F5400.000
G1 E1.96826 F3600.00000
G92 E0
G1 X110.686 Y127.621 F5400.000
G1 E1.50000 F3600.00000
G1 X78.912 Y127.621 E2.64386 F2400.000
G1 X78.912 Y123.595 E2.78882
G1 X79.756 Y123.349 E2.82047
G1 X80.211 Y124.066 E2.85103
G1 X80.552 Y124.464 E2.86987
G1 X81.394 Y125.139 E2.90874
G1 X82.331 Y125.595 E2.94624
G1 X83.332 Y125.872 E2.98363
G1 X84.365 Y125.996 E3.02108
G1 X85.404 Y125.987 E3.05851
G1 X86.433 Y125.833 E3.09596
G1 X87.427 Y125.512 E3.13357
G1 X88.353 Y124.981 E3.17199
G1 X88.746 Y124.643 E3.19066
G1 X89.103 Y124.239 E3.21006
G1 X89.398 Y123.790 E3.22941
G1 X89.616 Y123.305 E3.24855
G1 X89.743 Y122.795 E3.26745
G1 X89.764 Y122.271 E3.28634
G1 X89.687 Y121.752 E3.30525
G1 X89.533 Y121.250 E3.32415
G1 X89.312 Y120.772 E3.34310
G1 X89.022 Y120.336 E3.36195
G1 X88.657 Y119.958 E3.38086
G1 X88.245 Y119.652 E3.39932
G1 X86.871 Y118.919 E3.45541
G1 X84.936 Y118.590 E3.52605
G1 X84.938 Y118.539 E3.52789
G1 X83.182 Y118.825 E3.59191
G1 X81.877 Y119.247 E3.64129
G1 X81.295 Y119.573 E3.66531
G1 X80.756 Y119.995 E3.68996
G1 X80.294 Y120.501 E3.71460
G1 X79.763 Y121.360 E3.75097
G1 X78.912 Y121.118 E3.78281
G1 X78.912 Y110.221 E4.17509
G1 X78.744 Y110.193 E4.18123
G1 X78.707 Y110.301 E4.18534
G1 X76.486 Y110.301 E4.26530
G1 X75.339 Y113.623 E4.39184
G1 X74.106 Y110.295 E4.51962
G1 X71.685 Y110.295 E4.60677
G1 X71.423 Y109.483 E4.63747
G1 X73.396 Y108.064 E4.72494
G1 X72.727 Y105.849 E4.80824
G1 X73.399 Y105.360 E4.83817
G1 X75.341 Y106.704 E4.92320
G1 X77.193 Y105.363 E5.00550
G1 X77.877 Y105.845 E5.03562
G1 X77.208 Y108.136 E5.12152
G1 X78.912 Y109.458 E5.19915
G1 X78.912 Y94.980 E5.72037
G1 X86.099 Y102.363 E6.09128
G1 X86.235 Y102.280 E6.09702
G1 X86.160 Y102.048 E6.10582
G1 X88.133 Y100.629 E6.19329
G1 X87.464 Y98.414 E6.27658
G1 X88.136 Y97.925 E6.30651
G1 X90.078 Y99.269 E6.39154
G1 X91.688 Y98.103 E6.46309
G1 X88.428 Y94.769 E6.63097
G1 X88.428 Y69.284 E7.54842
G1 X96.894 Y62.829 E7.93167
G1 X96.894 Y103.428 E9.39324
G1 X92.470 Y98.903 E9.62105
G1 X91.946 Y100.701 E9.68846
G1 X93.715 Y102.074 E9.76909
G1 X93.444 Y102.865 E9.79921
G1 X91.223 Y102.865 E9.87916
G1 X90.076 Y106.188 E10.00570
G1 X88.843 Y102.860 E10.13348
G1 X86.582 Y102.860 E10.21487
G1 X89.957 Y106.326 E10.38904
G1 X90.048 Y106.269 E10.39292
G1 X90.010 Y106.380 E10.39716
G1 X100.506 Y117.163 E10.93889
G1 X100.643 Y117.081 E10.94464
G1 X100.589 Y116.916 E10.95090
G1 X102.562 Y115.497 E11.03837
G1 X101.893 Y113.282 E11.12167
G1 X102.565 Y112.792 E11.15160
G1 X104.507 Y114.137 E11.23663
G1 X106.179 Y112.926 E11.31093
G1 X101.651 Y108.294 E11.54413
G1 X101.651 Y61.712 E13.22109
G1 X110.203 Y68.219 E13.60799
G1 X110.203 Y117.043 E15.36563
G1 X106.923 Y113.688 E15.53456
G1 X106.375 Y115.569 E15.60509
G1 X108.144 Y116.942 E15.68572
G1 X107.873 Y117.733 E15.71584
G1 X105.652 Y117.733 E15.79580
G1 X104.450 Y121.215 E15.92840
G1 X110.644 Y127.578 E16.24809
G1 X109.891 Y127.286 F5400.000
G1 X79.248 Y127.286 E17.35125 F1200.000
G1 X79.248 Y123.847 E17.47505
G1 X79.608 Y123.742 E17.48856
G1 X79.941 Y124.266 E17.51091
G1 X80.317 Y124.706 E17.53175
G1 X81.214 Y125.424 E17.57310
G1 X82.212 Y125.910 E17.61306
G1 X83.267 Y126.202 E17.65248
G1 X84.346 Y126.332 E17.69161
G1 X85.431 Y126.322 E17.73066
G1 X86.510 Y126.161 E17.76995
G1 X87.564 Y125.821 E17.80982
G1 X88.548 Y125.256 E17.85065
G1 X88.982 Y124.882 E17.87129
G1 X89.371 Y124.444 E17.89238
G1 X89.693 Y123.952 E17.91356
G1 X89.935 Y123.415 E17.93475
G1 X90.077 Y122.843 E17.95596
G1 X90.100 Y122.253 E17.97721
G1 X90.016 Y121.677 E17.99817
G1 X89.847 Y121.129 E18.01881
G1 X89.605 Y120.607 E18.03951
G1 X89.284 Y120.125 E18.06037
G1 X88.880 Y119.705 E18.08138
G1 X88.425 Y119.368 E18.10174
G1 X87.194 Y118.711 E18.15199
G1 X87.595 Y118.347 E18.17150
G1 X87.758 Y118.286 E18.17775
G1 X87.928 Y118.269 E18.18392
G1 X88.211 Y118.327 E18.19429
G1 X88.435 Y118.420 E18.20303
G1 X88.499 Y118.409 E18.20539
G1 X88.650 Y118.317 E18.21174
G1 X88.942 Y118.021 E18.22671
G1 X89.098 Y117.829 E18.23560
