; generated by Slic3r 1.2.9 on 2016-02-01 at 18:22:31

; external perimeters extrusion width = 0.40mm
; perimeters extrusion width = 0.40mm
; infill extrusion width = 0.52mm
; solid infill extrusion width = 0.52mm
; top infill extrusion width = 0.40mm

M190 S50 ; set bed temperature
M104 S203 ; set temperature
M42 S1 ; enciende el LED
G4 P500;
M42 S0 ; apaga el LED
G4 P500;
M42 S1 ; enciende el LED
G4 P100;
M42 S0 ; apaga el LED
G4 P100;
M42 S1 ; enciende el LED
G4 P100;
M42 S0 ; apaga el LED
G4 P400;
M42 S1 ; enciende el LED
G4 P500;
M42 S0 ; apaga el LED

G28 ; home all axes
M109 S203 ; wait for temperature to be reached
G21 ; set units to millimeters
G90 ; use absolute coordinates
M82 ; use absolute distances for extrusion
G92 E0
M106 S255
G1 E-1.50000 F3600.00000
G92 E0
G1 Z0.300 F5400.000
G1 X56.904 Y56.904 F5400.000
G1 E1.50000 F3600.00000
M204 S1000
G1 X57.904 Y55.904 E1.55151 F2160.000
G1 X59.354 Y55.012 E1.61350
G1 X60.500 Y54.829 E1.65576
G1 X139.500 Y54.829 E4.53282
G1 X141.156 Y55.223 E4.59481
G1 X142.095 Y55.904 E4.63706 F2160.000
G1 X144.096 Y57.904 E4.74009
G1 X144.988 Y59.354 E4.80208
G1 X145.171 Y60.500 E4.84435
G1 X145.171 Y139.500 E7.72141
G1 X144.777 Y141.156 E7.78340
G1 X144.096 Y142.096 E7.82567
G1 X142.096 Y144.096 E7.92868
G1 X140.646 Y144.988 E7.99067
G1 X139.500 Y145.171 E8.03294
G1 X60.500 Y145.171 E10.91000
G1 X58.844 Y144.777 E10.97199
G1 X57.904 Y144.096 E11.01425
G1 X55.904 Y142.096 E11.11727
G1 X55.012 Y140.646 E11.17925
G1 X54.829 Y139.500 E11.22153
G1 X54.829 Y60.500 E14.09859
G1 X55.223 Y58.844 E14.16057
G1 X55.904 Y57.904 E14.20285
G1 X56.862 Y56.946 E14.25217
G1 X57.141 Y57.141 F5400.000
G1 X58.142 Y56.141 E14.30368 F2160.000
G1 X59.532 Y55.308 E14.36273
G1 X60.500 Y55.164 E14.39835
G1 X139.500 Y55.164 E17.27541
G1 X141.073 Y55.558 E17.33446
G1 X141.858 Y56.141 E17.37007 F2160.000
G1 X143.859 Y58.141 E17.47310
G1 X144.692 Y59.532 E17.53215
G1 X144.836 Y60.500 E17.56779
G1 X144.836 Y139.500 E20.44484
G1 X144.442 Y141.073 E20.50389
G1 X143.859 Y141.859 E20.53953
G1 X141.859 Y143.859 E20.64253
G1 X140.468 Y144.692 E20.70158
G1 X139.500 Y144.836 E20.73722
G1 X60.500 Y144.836 E23.61428
G1 X58.927 Y144.442 E23.67332
G1 X58.142 Y143.859 E23.70895
G1 X56.141 Y141.859 E23.81196
G1 X55.308 Y140.468 E23.87101
G1 X55.164 Y139.500 E23.90665
G1 X55.164 Y60.500 E26.78371
G1 X55.558 Y58.927 E26.84275
G1 X56.141 Y58.141 E26.87839
G1 X57.099 Y57.184 E26.92771
G1 E25.42771 F3600.00000
G92 E0
G1 X140.629 Y115.641 F5400.000
G1 E1.50000 F3600.00000
G1 X140.629 Y139.139 E2.35575 F2400.000
G1 X139.139 Y140.629 E2.43248
G1 X60.861 Y140.629 E5.28325
G1 X59.371 Y139.139 E5.35997
G1 X59.371 Y60.861 E8.21074
G1 X60.861 Y59.371 E8.28746
G1 X139.150 Y59.382 E11.13863
G1 X140.629 Y60.861 E11.21480 F2400.000
G1 X140.629 Y115.581 E13.20763
G1 X140.964 Y115.641 F5400.000
G1 X140.964 Y139.278 E14.06845 F2400.000
G1 X139.278 Y140.964 E14.15530
G1 X60.722 Y140.964 E17.01619
G1 X59.036 Y139.278 E17.10304
G1 X59.036 Y60.722 E19.96394
G1 X60.722 Y59.036 E20.05079
G1 X139.289 Y59.047 E22.91208
G1 X140.964 Y60.722 E22.99837 F2400.000
G1 X140.964 Y115.581 E24.99627
G1 X141.300 Y115.641 F5400.000
G1 X141.300 Y139.417 E25.86215 F1200.000
G1 X139.417 Y141.300 E25.95912
G1 X60.583 Y141.300 E28.83015
G1 X58.700 Y139.417 E28.92712
G1 X58.700 Y60.583 E31.79814
G1 X60.583 Y58.700 E31.89512
G1 X139.428 Y58.711 E34.76654
G1 X141.300 Y60.583 E34.86295 F1200.000
G1 X141.300 Y115.581 E36.86591
G1 X140.954 Y115.841 F5400.000
G1 E35.36591 F3600.00000
G92 E0
G1 X140.485 Y61.049 F5400.000
G1 E1.50000 F3600.00000
G1 X138.961 Y59.526 E1.57864 F2400.000
G1 X138.486 Y59.526 E1.59600
G1 X140.485 Y61.525 E1.69919
G1 X140.485 Y62.001 E1.71656
G1 X138.010 Y59.526 E1.84430
G1 X137.534 Y59.526 E1.86167
G1 X140.485 Y62.476 E2.01397
G1 X140.485 Y62.952 E2.03133
G1 X137.059 Y59.526 E2.20819
G1 X136.583 Y59.525 E2.22555
G1 X140.485 Y63.428 E2.42696
G1 X140.485 Y63.903 E2.44432
G1 X136.107 Y59.525 E2.67029
G1 X135.631 Y59.525 E2.68765
G1 X140.485 Y64.379 E2.93817
G1 X140.485 Y64.855 E2.95553
G1 X135.156 Y59.525 E3.23061
G1 X134.680 Y59.525 E3.24797
G1 X140.485 Y65.330 E3.54760
G1 X140.485 Y65.806 E3.56496
G1 X134.204 Y59.525 E3.88915
G1 X133.728 Y59.525 E3.90651
G1 X140.485 Y66.282 E4.25525
G1 X140.485 Y66.757 E4.27261
G1 X133.253 Y59.525 E4.64591
G1 X132.777 Y59.525 E4.66327
G1 X140.485 Y67.233 E5.06112
G1 X140.485 Y67.709 E5.07848
G1 X132.301 Y59.525 E5.50088
G1 X131.826 Y59.525 E5.51824
G1 X140.485 Y68.184 E5.96520
G1 X140.485 Y68.660 E5.98256
G1 X131.350 Y59.525 E6.45408
G1 X130.874 Y59.525 E6.47144
G1 X140.485 Y69.136 E6.96751
G1 X140.485 Y69.611 E6.98487
G1 X130.398 Y59.525 E7.50549
G1 X129.923 Y59.525 E7.52285
G1 X140.485 Y70.087 E8.06803
G1 X140.485 Y70.563 E8.08539
G1 X129.447 Y59.524 E8.65512
G1 X128.971 Y59.524 E8.67249
G1 X140.485 Y71.038 E9.26677
G1 X140.485 Y71.514 E9.28413
G1 X128.495 Y59.524 E9.90297
G1 X128.020 Y59.524 E9.92034
G1 X140.485 Y71.990 E10.56373
G1 X140.485 Y72.465 E10.58109
G1 X127.544 Y59.524 E11.24904
G1 X127.068 Y59.524 E11.26641
G1 X140.485 Y72.941 E11.95891
G1 X140.485 Y73.417 E11.97627
G1 X126.593 Y59.524 E12.69333
G1 X126.117 Y59.524 E12.71069
G1 X140.485 Y73.892 E13.45231
G1 X140.485 Y74.368 E13.46967
G1 X125.641 Y59.524 E14.23584
G1 X125.165 Y59.524 E14.25320
G1 X140.485 Y74.844 E15.04392
G1 X140.485 Y75.319 E15.06128
G1 X124.690 Y59.524 E15.87656
G1 X124.214 Y59.524 E15.89393
G1 X140.485 Y75.795 E16.73376
G1 X140.485 Y76.271 E16.75112
G1 X123.738 Y59.524 E17.61551
G1 X123.262 Y59.524 E17.63287
G1 X140.485 Y76.746 E18.52181
G1 X140.485 Y77.222 E18.53917
G1 X122.787 Y59.524 E19.45267
G1 X122.311 Y59.524 E19.47003
G1 X140.485 Y77.698 E20.40808
G1 X140.485 Y78.173 E20.42544
G1 X121.835 Y59.523 E21.38805
G1 X121.359 Y59.523 E21.40541
G1 X140.485 Y78.649 E22.39257
G1 X140.485 Y79.125 E22.40994
G1 X120.884 Y59.523 E23.42165
G1 X120.408 Y59.523 E23.43901
G1 X140.485 Y79.600 E24.47528
G1 X140.485 Y80.076 E24.49264
G1 X119.932 Y59.523 E25.55347
G1 X119.457 Y59.523 E25.57083
G1 X140.485 Y80.552 E26.65621
G1 X140.485 Y81.027 E26.67357
G1 X118.981 Y59.523 E27.78351
G1 X118.505 Y59.523 E27.80087
G1 X140.485 Y81.503 E28.93536
G1 X140.485 Y81.979 E28.95272
G1 X118.029 Y59.523 E30.11176
G1 X117.554 Y59.523 E30.12913
G1 X140.485 Y82.454 E31.31272
G1 X140.485 Y82.930 E31.33008
G1 X117.078 Y59.523 E32.53824
G1 X116.602 Y59.523 E32.55560
G1 X140.485 Y83.406 E33.78831
G1 X140.485 Y83.881 E33.80567
G1 X116.126 Y59.523 E35.06293
G1 X115.651 Y59.523 E35.08029
G1 X140.485 Y84.357 E36.36211
G1 X140.485 Y84.833 E36.37947
G1 X115.175 Y59.523 E37.68584
G1 X114.699 Y59.522 E37.70320
G1 X140.485 Y85.308 E39.03413
G1 X140.485 Y85.784 E39.05149
G1 X114.224 Y59.522 E40.40697
G1 X113.748 Y59.522 E40.42434
G1 X140.485 Y86.260 E41.80437
G1 X140.485 Y86.735 E41.82173
G1 X113.272 Y59.522 E43.22632
G1 X112.796 Y59.522 E43.24368
G1 X140.485 Y87.211 E44.67283
G1 X140.485 Y87.687 E44.69019
G1 X112.321 Y59.522 E46.14389
G1 X111.845 Y59.522 E46.16125
G1 X140.485 Y88.162 E47.63951
G1 X140.485 Y88.638 E47.65687
G1 X111.369 Y59.522 E49.15968
G1 X110.893 Y59.522 E49.17704
G1 X140.485 Y89.114 E50.70440
G1 X140.485 Y89.589 E50.72176
G1 X110.418 Y59.522 E52.27368
G1 X109.942 Y59.522 E52.29104
G1 X140.485 Y90.065 E53.86752
G1 X140.485 Y90.540 E53.88488
G1 X109.466 Y59.522 E55.48590
G1 X108.991 Y59.522 E55.50327
G1 X140.485 Y91.016 E57.12885
G1 X140.485 Y91.492 E57.14621
G1 X108.515 Y59.522 E58.79635
G1 X108.039 Y59.522 E58.81371
G1 X140.485 Y91.967 E60.48840
G1 X140.485 Y92.443 E60.50576
G1 X107.563 Y59.521 E62.20501
G1 X107.088 Y59.521 E62.22237
G1 X140.485 Y92.919 E63.94617
G1 X140.485 Y93.394 E63.96353
G1 X106.612 Y59.521 E65.71189
G1 X106.136 Y59.521 E65.72925
G1 X140.485 Y93.870 E67.50216
G1 X140.485 Y94.346 E67.51952
G1 X105.660 Y59.521 E69.31698
G1 X105.185 Y59.521 E69.33435
G1 X140.485 Y94.821 E71.15637
G1 X140.485 Y95.297 E71.17373
G1 X104.709 Y59.521 E73.02030
G1 X104.233 Y59.521 E73.03766
G1 X140.485 Y95.773 E74.90879
G1 X140.485 Y96.248 E74.92615
G1 X103.758 Y59.521 E76.82184
G1 X103.282 Y59.521 E76.83920
G1 X140.485 Y96.724 E78.75944
G1 X140.485 Y97.200 E78.77680
G1 X102.806 Y59.521 E80.72159
G1 X102.330 Y59.521 E80.73895
G1 X140.485 Y97.675 E82.70830
G1 X140.485 Y98.151 E82.72566
G1 X101.855 Y59.521 E84.71956
G1 X101.379 Y59.521 E84.73693
G1 X140.485 Y98.627 E86.75538
G1 X140.485 Y99.102 E86.77274
G1 X100.903 Y59.521 E88.81575
G1 X100.427 Y59.520 E88.83312
G1 X140.485 Y99.578 E90.90068
G1 X140.485 Y100.054 E90.91804
G1 X99.952 Y59.520 E93.01016
G1 X99.476 Y59.520 E93.02753
G1 X140.485 Y100.529 E95.14420
G1 X140.485 Y101.005 E95.16156
G1 X99.000 Y59.520 E97.30279
G1 X98.525 Y59.520 E97.32015
G1 X140.485 Y101.481 E99.48594
G1 X140.485 Y101.956 E99.50330
G1 X98.049 Y59.520 E101.69364
G1 X97.573 Y59.520 E101.71100
G1 X140.485 Y102.432 E103.92590
G1 X140.485 Y102.908 E103.94326
G1 X97.097 Y59.520 E106.18270
G1 X96.622 Y59.520 E106.20007
G1 X140.485 Y103.383 E108.46407
G1 X140.485 Y103.859 E108.48143
G1 X96.146 Y59.520 E110.76999
G1 X95.670 Y59.520 E110.78735
G1 X140.485 Y104.335 E113.10046
G1 X140.485 Y104.810 E113.11782
G1 X95.194 Y59.520 E115.45549
G1 X94.719 Y59.520 E115.47286
G1 X140.485 Y105.286 E117.83508
G1 X140.485 Y105.762 E117.85244
G1 X94.243 Y59.520 E120.23921
G1 X93.767 Y59.520 E120.25658
G1 X140.485 Y106.237 E122.66791
G1 X140.485 Y106.713 E122.68527
G1 X93.291 Y59.519 E125.12115
G1 X92.816 Y59.519 E125.13852
G1 X140.485 Y107.189 E127.59896
G1 X140.485 Y107.664 E127.61632
G1 X92.340 Y59.519 E130.10131
G1 X91.864 Y59.519 E130.11868
G1 X140.485 Y108.140 E132.62823
G1 X140.485 Y108.616 E132.64559
G1 X91.389 Y59.519 E135.17969
G1 X90.913 Y59.519 E135.19705
G1 X140.485 Y109.091 E137.75571
G1 X140.485 Y109.567 E137.77307
G1 X90.437 Y59.519 E140.35629
G1 X89.961 Y59.519 E140.37365
G1 X140.485 Y110.043 E142.98142
G1 X140.485 Y110.518 E142.99878
G1 X89.486 Y59.519 E145.63110
G1 X89.010 Y59.519 E145.64846
G1 X140.485 Y110.994 E148.30534
G1 X140.485 Y111.470 E148.32270
G1 X88.534 Y59.519 E151.00414
G1 X88.058 Y59.519 E151.02150
G1 X140.485 Y111.945 E153.72749
G1 X140.485 Y112.421 E153.74485
G1 X87.583 Y59.519 E156.47539
G1 X87.107 Y59.519 E156.49275
G1 X140.485 Y112.897 E159.24785
G1 X140.485 Y113.372 E159.26521
G1 X86.631 Y59.519 E162.04486
G1 X86.156 Y59.519 E162.06222
G1 X140.485 Y113.848 E164.86643
G1 X140.485 Y114.324 E164.88379
G1 X85.680 Y59.518 E167.71255
G1 X85.204 Y59.518 E167.72991
G1 X140.485 Y114.799 E170.58323
G1 X140.485 Y115.275 E170.60059
G1 X84.728 Y59.518 E173.47846
G1 X84.253 Y59.518 E173.49582
G1 X140.485 Y115.751 E176.39824
G1 X140.485 Y116.226 E176.41560
G1 X83.777 Y59.518 E179.34258
G1 X83.301 Y59.518 E179.35994
G1 X140.485 Y116.702 E182.31148
G1 X140.485 Y117.178 E182.32884
G1 X82.825 Y59.518 E185.30493
G1 X82.350 Y59.518 E185.32229
G1 X140.485 Y117.653 E188.32293
G1 X140.485 Y118.129 E188.34029
G1 X81.874 Y59.518 E191.36549
G1 X81.398 Y59.518 E191.38285
G1 X140.485 Y118.605 E194.43261
G1 X140.485 Y119.080 E194.44997
G1 X80.923 Y59.518 E197.52427
G1 X80.447 Y59.518 E197.54164
G1 X140.485 Y119.556 E200.64050
G1 X140.485 Y120.032 E200.65786
G1 X79.971 Y59.518 E203.78127
G1 X79.495 Y59.518 E203.79864
G1 X140.485 Y120.507 E206.94661
G1 X140.485 Y120.983 E206.96397
G1 X79.020 Y59.518 E210.13649
G1 X78.544 Y59.517 E210.15386
G1 X140.485 Y121.459 E213.35094
G1 X140.485 Y121.934 E213.36830
G1 X78.068 Y59.517 E216.58993
G1 X77.592 Y59.517 E216.60730
G1 X140.485 Y122.410 E219.85349
G1 X140.485 Y122.886 E219.87085
G1 X77.117 Y59.517 E223.14159
G1 X76.641 Y59.517 E223.15895
G1 X140.485 Y123.361 E226.45425
G1 X140.485 Y123.837 E226.47161
G1 X76.165 Y59.517 E229.79147
G1 X75.690 Y59.517 E229.80883
G1 X140.485 Y124.313 E233.15324
G1 X140.485 Y124.788 E233.17060
G1 X75.214 Y59.517 E236.53956
G1 X74.738 Y59.517 E236.55692
G1 X140.485 Y125.264 E239.95044
G1 X140.485 Y125.740 E239.96780
G1 X74.262 Y59.517 E243.38587
G1 X73.787 Y59.517 E243.40324
G1 X140.485 Y126.215 E246.84586
G1 X140.485 Y126.691 E246.86322
G1 X73.311 Y59.517 E250.33040
G1 X72.835 Y59.517 E250.34777
G1 X140.485 Y127.167 E253.83950
G1 X140.485 Y127.642 E253.85686
G1 X72.359 Y59.517 E257.37315
G1 X71.884 Y59.517 E257.39052
G1 X140.485 Y128.118 E260.93136
G1 X140.485 Y128.594 E260.94872
G1 X71.408 Y59.516 E264.51412
G1 X70.932 Y59.516 E264.53149
G1 X140.485 Y129.069 E268.12144
G1 X140.485 Y129.545 E268.13880
G1 X70.456 Y59.516 E271.75331
G1 X69.981 Y59.516 E271.77067
G1 X140.485 Y130.021 E275.40974
G1 X140.485 Y130.496 E275.42710
G1 X69.505 Y59.516 E279.09072
G1 X69.029 Y59.516 E279.10808
G1 X140.485 Y130.972 E282.79625
G1 X140.485 Y131.448 E282.81361
G1 X68.554 Y59.516 E286.52634
G1 X68.078 Y59.516 E286.54370
G1 X140.485 Y131.923 E290.28099
G1 X140.485 Y132.399 E290.29835
G1 X67.602 Y59.516 E294.06018
G1 X67.126 Y59.516 E294.07755
G1 X140.485 Y132.875 E297.86394
G1 X140.485 Y133.350 E297.88130
G1 X66.651 Y59.516 E301.69225
G1 X66.175 Y59.516 E301.70961
G1 X140.485 Y133.826 E305.54511
G1 X140.485 Y134.302 E305.56247
G1 X65.699 Y59.516 E309.42253
G1 X65.223 Y59.516 E309.43989
G1 X140.485 Y134.777 E313.32450
G1 X140.485 Y135.253 E313.34186
G1 X64.748 Y59.516 E317.25103
G1 X64.272 Y59.515 E317.26839
G1 X140.485 Y135.729 E321.20211
G1 X140.485 Y136.204 E321.21947
G1 X63.796 Y59.515 E325.17774
G1 X63.321 Y59.515 E325.19511
G1 X140.485 Y136.680 E329.17794
G1 X140.485 Y137.156 E329.19530
G1 X62.845 Y59.515 E333.20268
G1 X62.369 Y59.515 E333.22004
G1 X140.485 Y137.631 E337.25198
G1 X140.485 Y138.107 E337.26934
G1 X61.893 Y59.515 E341.32584
G1 X61.418 Y59.515 E341.34320
G1 X140.485 Y138.582 E345.42425
G1 X140.485 Y139.058 E345.44161
G1 X60.942 Y59.515 E349.54721
G1 X60.687 Y59.735 E349.55952
G1 X140.265 Y139.313 E353.66692
G1 X140.027 Y139.551 E353.67920
G1 X60.449 Y59.973 E357.78661
G1 X60.211 Y60.211 E357.79888
G1 X139.789 Y139.789 E361.90629
G1 X139.551 Y140.027 E361.91856
G1 X59.973 Y60.449 E366.02597
G1 X59.735 Y60.687 E366.03824
G1 X139.313 Y140.265 E370.14565
G1 X139.058 Y140.485 E370.15796
G1 X59.515 Y60.942 E374.26355
G1 X59.515 Y61.418 E374.28091
G1 X138.582 Y140.485 E378.36196
G1 X138.107 Y140.485 E378.37932
G1 X59.515 Y61.893 E382.43581
G1 X59.515 Y62.369 E382.45317
G1 X137.631 Y140.485 E386.48511
G1 X137.155 Y140.485 E386.50247
G1 X59.515 Y62.845 E390.50986
G1 X59.515 Y63.320 E390.52722
G1 X136.680 Y140.485 E394.51006
G1 X136.204 Y140.485 E394.52742
G1 X59.515 Y63.796 E398.48571
G1 X59.515 Y64.272 E398.50307
G1 X135.728 Y140.485 E402.43681
G1 X135.253 Y140.485 E402.45417
G1 X59.515 Y64.747 E406.36335
G1 X59.515 Y65.223 E406.38071
G1 X134.777 Y140.485 E410.26535
G1 X134.301 Y140.485 E410.28271
G1 X59.515 Y65.699 E414.14279
G1 X59.515 Y66.174 E414.16015
G1 X133.826 Y140.485 E417.99568
G1 X133.350 Y140.485 E418.01304
G1 X59.515 Y66.650 E421.82402
G1 X59.515 Y67.126 E421.84138
G1 X132.874 Y140.485 E425.62781
G1 X132.399 Y140.485 E425.64517
G1 X59.515 Y67.601 E429.40705
G1 X59.515 Y68.077 E429.42441
G1 X131.923 Y140.485 E433.16173
G1 X131.447 Y140.485 E433.17909
G1 X59.515 Y68.553 E436.89187
G1 X59.515 Y69.028 E436.90923
G1 X130.972 Y140.485 E440.59745
G1 X130.496 Y140.485 E440.61481
G1 X59.515 Y69.504 E444.27849
G1 X59.515 Y69.980 E444.29585
G1 X130.020 Y140.485 E447.93497
G1 X129.545 Y140.485 E447.95233
G1 X59.515 Y70.455 E451.56690
G1 X59.515 Y70.931 E451.58426
G1 X129.069 Y140.485 E455.17428
G1 X128.593 Y140.485 E455.19164
G1 X59.515 Y71.407 E458.75710
G1 X59.515 Y71.882 E458.77447
G1 X128.118 Y140.485 E462.31538
G1 X127.642 Y140.485 E462.33274
G1 X59.515 Y72.358 E465.84911
G1 X59.515 Y72.834 E465.86647
G1 X127.166 Y140.485 E469.35828
