; generated by Slic3r 1.2.9 on 2016-03-02 at 12:59:17

; external perimeters extrusion width = 0.40mm
; perimeters extrusion width = 0.40mm
; infill extrusion width = 0.52mm
; solid infill extrusion width = 0.52mm
; top infill extrusion width = 0.40mm

M190 S50 ; set bed temperature
M104 S214 ; set temperature
M42 S1 ; enciende el LED
G4 P500;
M42 S0 ; apaga el LED
G4 P500;
M42 S1 ; enciende el LED
G4 P100;
M42 S0 ; apaga el LED
G4 P100;
M42 S1 ; enciende el LED
G4 P100;
M42 S0 ; apaga el LED
G4 P400;
M42 S1 ; enciende el LED
G4 P500;
M42 S0 ; apaga el LED

G28 ; home all axes
M109 S214 ; wait for temperature to be reached
G21 ; set units to millimeters
G90 ; use absolute coordinates
M82 ; use absolute distances for extrusion
G92 E0
M106 S255
G1 E-1.50000 F3600.00000
G92 E0
G1 Z0.300 F5400.000
G1 X72.822 Y72.044 F5400.000
G1 E1.50000 F3600.00000
M204 S1000
G1 X75.000 Y71.329 E1.58253 F2160.000
G1 X125.000 Y71.329 E3.38252
G1 X126.656 Y71.723 E3.44379
G1 X127.956 Y72.822 E3.50507 F2160.000
G1 X128.671 Y75.000 E3.58760
G1 X128.671 Y125.000 E5.38759
G1 X128.277 Y126.656 E5.44886
G1 X127.178 Y127.956 E5.51014
G1 X125.000 Y128.671 E5.59266
G1 X75.000 Y128.671 E7.39266
G1 X73.344 Y128.277 E7.45393
G1 X72.044 Y127.178 E7.51520
G1 X71.329 Y125.000 E7.59773
G1 X71.329 Y75.000 E9.39772
G1 X71.723 Y73.344 E9.45900
G1 X72.783 Y72.090 E9.51811
G1 X73.091 Y72.288 F5400.000
G1 X73.147 Y72.226 E9.52113 F2160.000
G1 X75.000 Y71.664 E9.59082
G1 X125.000 Y71.664 E11.39082
G1 X126.573 Y72.058 E11.44918
G1 X127.774 Y73.147 E11.50755 F2160.000
G1 X128.336 Y75.000 E11.57724
G1 X128.336 Y125.000 E13.37724
G1 X127.942 Y126.573 E13.43560
G1 X126.853 Y127.774 E13.49397
G1 X125.000 Y128.336 E13.56366
G1 X75.000 Y128.336 E15.36365
G1 X73.427 Y127.942 E15.42202
G1 X72.226 Y126.853 E15.48039
G1 X71.664 Y125.000 E15.55008
G1 X71.664 Y75.000 E17.35007
G1 X72.058 Y73.427 E17.40844
G1 X73.051 Y72.333 E17.46163
G1 E15.96163 F3600.00000
G92 E0
G1 X124.129 Y124.129 F5400.000
G1 E1.50000 F3600.00000
G1 X115.871 Y124.129 E1.79727 F960.000
G1 X115.871 Y115.871 E2.09454
G1 X124.129 Y115.871 E2.39181
G1 X124.129 Y124.069 E2.68692
G1 X124.464 Y124.464 F5400.000
G1 X115.536 Y124.464 E3.00835 F960.000
G1 X115.536 Y115.536 E3.32979
G1 X124.464 Y115.536 E3.65122
G1 X124.464 Y124.404 E3.97050
G1 X124.800 Y124.800 F5400.000
G1 X115.200 Y124.800 E4.31609 F960.000
G1 X115.200 Y115.200 E4.66169
G1 X124.800 Y115.200 E5.00729
G1 X124.800 Y124.740 E5.35073
G1 X124.454 Y124.600 F5400.000
G1 E3.85073 F3600.00000
G92 E0
G1 X123.985 Y116.197 F5400.000
G1 E1.50000 F3600.00000
G1 X123.803 Y116.015 E1.50952 F2400.000
G1 X123.316 Y116.015 E1.52749
G1 X123.985 Y116.684 E1.56243
G1 X123.985 Y117.171 E1.58039
G1 X122.829 Y116.015 E1.64074
G1 X122.342 Y116.015 E1.65871
G1 X123.985 Y117.658 E1.74447
G1 X123.985 Y118.144 E1.76243
G1 X121.856 Y116.015 E1.87360
G1 X121.369 Y116.015 E1.89157
G1 X123.985 Y118.631 E2.02815
G1 X123.985 Y119.118 E2.04612
G1 X120.882 Y116.015 E2.20811
G1 X120.396 Y116.015 E2.22608
G1 X123.985 Y119.604 E2.41349
G1 X123.985 Y120.091 E2.43146
G1 X119.909 Y116.015 E2.64427
G1 X119.422 Y116.015 E2.66224
G1 X123.985 Y120.578 E2.90047
G1 X123.985 Y121.065 E2.91844
G1 X118.935 Y116.015 E3.18208
G1 X118.449 Y116.015 E3.20004
G1 X123.985 Y121.551 E3.48909
G1 X123.985 Y122.038 E3.50706
G1 X117.962 Y116.015 E3.82153
G1 X117.475 Y116.015 E3.83949
G1 X123.985 Y122.525 E4.17937
G1 X123.985 Y123.012 E4.19734
G1 X116.988 Y116.015 E4.56262
G1 X116.502 Y116.015 E4.58059
G1 X123.985 Y123.498 E4.97129
G1 X123.965 Y123.965 E4.98853
G1 X116.035 Y116.035 E5.40255
G1 X116.015 Y116.502 E5.41980
G1 X123.498 Y123.985 E5.81050
G1 X123.012 Y123.985 E5.82847
G1 X116.015 Y116.988 E6.19375
G1 X116.015 Y117.475 E6.21172
G1 X122.525 Y123.985 E6.55159
G1 X122.038 Y123.985 E6.56956
G1 X116.015 Y117.962 E6.88402
G1 X116.015 Y118.449 E6.90199
G1 X121.551 Y123.985 E7.19104
G1 X121.065 Y123.985 E7.20901
G1 X116.015 Y118.935 E7.47265
G1 X116.015 Y119.422 E7.49062
G1 X120.578 Y123.985 E7.72884
G1 X120.091 Y123.985 E7.74681
G1 X116.015 Y119.909 E7.95963
G1 X116.015 Y120.396 E7.97759
G1 X119.604 Y123.985 E8.16500
G1 X119.118 Y123.985 E8.18297
G1 X116.015 Y120.882 E8.34496
G1 X116.015 Y121.369 E8.36293
G1 X118.631 Y123.985 E8.49951
G1 X118.144 Y123.985 E8.51747
G1 X116.015 Y121.856 E8.62864
G1 X116.015 Y122.342 E8.64661
G1 X117.658 Y123.985 E8.73237
G1 X117.171 Y123.985 E8.75034
G1 X116.015 Y122.829 E8.81068
G1 X116.015 Y123.316 E8.82865
G1 X116.684 Y123.985 E8.86358
G1 X116.197 Y123.985 E8.88155
G1 X116.015 Y123.803 E8.89107
G1 E7.39107 F3600.00000
G92 E0
G1 X124.129 Y84.129 F5400.000
G1 E1.50000 F3600.00000
G1 X115.871 Y84.129 E1.79727 F960.000
G1 X115.871 Y75.871 E2.09454
G1 X124.129 Y75.871 E2.39181
G1 X124.129 Y84.069 E2.68692
G1 X124.464 Y84.464 F5400.000
G1 X115.536 Y84.464 E3.00835 F960.000
G1 X115.536 Y75.536 E3.32979
G1 X124.464 Y75.536 E3.65122
G1 X124.464 Y84.404 E3.97050
G1 X124.800 Y84.800 F5400.000
G1 X115.200 Y84.800 E4.31609 F960.000
G1 X115.200 Y75.200 E4.66169
G1 X124.800 Y75.200 E5.00729
G1 X124.800 Y84.740 E5.35073
G1 X124.454 Y84.600 F5400.000
G1 E3.85073 F3600.00000
G92 E0
G1 X123.985 Y76.197 F5400.000
G1 E1.50000 F3600.00000
G1 X123.803 Y76.015 E1.50952 F2400.000
G1 X123.316 Y76.015 E1.52749
G1 X123.985 Y76.684 E1.56243
G1 X123.985 Y77.171 E1.58039
G1 X122.829 Y76.015 E1.64074
G1 X122.342 Y76.015 E1.65871
G1 X123.985 Y77.658 E1.74447
G1 X123.985 Y78.144 E1.76243
G1 X121.856 Y76.015 E1.87360
G1 X121.369 Y76.015 E1.89157
G1 X123.985 Y78.631 E2.02815
G1 X123.985 Y79.118 E2.04612
G1 X120.882 Y76.015 E2.20811
G1 X120.396 Y76.015 E2.22608
G1 X123.985 Y79.604 E2.41349
G1 X123.985 Y80.091 E2.43146
G1 X119.909 Y76.015 E2.64427
G1 X119.422 Y76.015 E2.66224
G1 X123.985 Y80.578 E2.90047
G1 X123.985 Y81.065 E2.91844
G1 X118.935 Y76.015 E3.18208
G1 X118.449 Y76.015 E3.20004
G1 X123.985 Y81.551 E3.48909
G1 X123.985 Y82.038 E3.50706
G1 X117.962 Y76.015 E3.82153
G1 X117.475 Y76.015 E3.83949
G1 X123.985 Y82.525 E4.17937
G1 X123.985 Y83.012 E4.19734
G1 X116.988 Y76.015 E4.56262
G1 X116.502 Y76.015 E4.58059
G1 X123.985 Y83.498 E4.97129
G1 X123.965 Y83.965 E4.98854
G1 X116.035 Y76.035 E5.40256
G1 X116.015 Y76.502 E5.41980
G1 X123.498 Y83.985 E5.81050
G1 X123.012 Y83.985 E5.82847
G1 X116.015 Y76.988 E6.19375
G1 X116.015 Y77.475 E6.21172
G1 X122.525 Y83.985 E6.55159
G1 X122.038 Y83.985 E6.56956
G1 X116.015 Y77.962 E6.88402
G1 X116.015 Y78.449 E6.90199
G1 X121.551 Y83.985 E7.19104
G1 X121.065 Y83.985 E7.20901
G1 X116.015 Y78.935 E7.47265
G1 X116.015 Y79.422 E7.49062
G1 X120.578 Y83.985 E7.72884
G1 X120.091 Y83.985 E7.74681
G1 X116.015 Y79.909 E7.95963
G1 X116.015 Y80.396 E7.97760
G1 X119.604 Y83.985 E8.16500
G1 X119.118 Y83.985 E8.18297
G1 X116.015 Y80.882 E8.34496
G1 X116.015 Y81.369 E8.36293
G1 X118.631 Y83.985 E8.49951
G1 X118.144 Y83.985 E8.51748
G1 X116.015 Y81.856 E8.62864
G1 X116.015 Y82.342 E8.64661
G1 X117.658 Y83.985 E8.73237
G1 X117.171 Y83.985 E8.75034
G1 X116.015 Y82.829 E8.81068
G1 X116.015 Y83.316 E8.82865
G1 X116.684 Y83.985 E8.86358
G1 X116.197 Y83.985 E8.88155
G1 X116.015 Y83.803 E8.89107
G1 E7.39107 F3600.00000
G92 E0
G1 X84.129 Y84.129 F5400.000
G1 E1.50000 F3600.00000
G1 X75.871 Y84.129 E1.79727 F960.000
G1 X75.871 Y75.871 E2.09454
G1 X84.129 Y75.871 E2.39181
G1 X84.129 Y84.069 E2.68692
G1 X84.464 Y84.464 F5400.000
G1 X75.536 Y84.464 E3.00835 F960.000
G1 X75.536 Y75.536 E3.32979
G1 X84.464 Y75.536 E3.65122
G1 X84.464 Y84.404 E3.97050
G1 X84.800 Y84.800 F5400.000
G1 X75.200 Y84.800 E4.31609 F960.000
G1 X75.200 Y75.200 E4.66169
G1 X84.800 Y75.200 E5.00729
G1 X84.800 Y84.740 E5.35073
G1 X84.454 Y84.600 F5400.000
G1 E3.85073 F3600.00000
G92 E0
G1 X83.985 Y76.197 F5400.000
G1 E1.50000 F3600.00000
G1 X83.803 Y76.015 E1.50952 F2400.000
G1 X83.316 Y76.015 E1.52749
G1 X83.985 Y76.684 E1.56243
G1 X83.985 Y77.171 E1.58039
G1 X82.829 Y76.015 E1.64074
G1 X82.342 Y76.015 E1.65871
G1 X83.985 Y77.658 E1.74447
G1 X83.985 Y78.144 E1.76243
G1 X81.856 Y76.015 E1.87360
G1 X81.369 Y76.015 E1.89157
G1 X83.985 Y78.631 E2.02815
G1 X83.985 Y79.118 E2.04612
G1 X80.882 Y76.015 E2.20811
G1 X80.396 Y76.015 E2.22608
G1 X83.985 Y79.604 E2.41349
G1 X83.985 Y80.091 E2.43146
G1 X79.909 Y76.015 E2.64427
G1 X79.422 Y76.015 E2.66224
G1 X83.985 Y80.578 E2.90047
G1 X83.985 Y81.065 E2.91844
G1 X78.935 Y76.015 E3.18208
G1 X78.449 Y76.015 E3.20004
G1 X83.985 Y81.551 E3.48909
G1 X83.985 Y82.038 E3.50706
G1 X77.962 Y76.015 E3.82153
G1 X77.475 Y76.015 E3.83949
G1 X83.985 Y82.525 E4.17937
G1 X83.985 Y83.012 E4.19734
G1 X76.988 Y76.015 E4.56262
G1 X76.502 Y76.015 E4.58059
G1 X83.985 Y83.498 E4.97129
G1 X83.965 Y83.965 E4.98854
G1 X76.035 Y76.035 E5.40256
G1 X76.015 Y76.502 E5.41980
G1 X83.498 Y83.985 E5.81050
G1 X83.012 Y83.985 E5.82847
G1 X76.015 Y76.988 E6.19375
G1 X76.015 Y77.475 E6.21172
G1 X82.525 Y83.985 E6.55159
G1 X82.038 Y83.985 E6.56956
G1 X76.015 Y77.962 E6.88402
G1 X76.015 Y78.449 E6.90199
G1 X81.551 Y83.985 E7.19104
G1 X81.065 Y83.985 E7.20901
G1 X76.015 Y78.935 E7.47265
G1 X76.015 Y79.422 E7.49062
G1 X80.578 Y83.985 E7.72884
G1 X80.091 Y83.985 E7.74681
G1 X76.015 Y79.909 E7.95963
G1 X76.015 Y80.396 E7.97759
G1 X79.604 Y83.985 E8.16500
G1 X79.118 Y83.985 E8.18297
G1 X76.015 Y80.882 E8.34496
G1 X76.015 Y81.369 E8.36293
G1 X78.631 Y83.985 E8.49951
G1 X78.144 Y83.985 E8.51747
G1 X76.015 Y81.856 E8.62864
G1 X76.015 Y82.342 E8.64661
G1 X77.658 Y83.985 E8.73237
G1 X77.171 Y83.985 E8.75034
G1 X76.015 Y82.829 E8.81068
G1 X76.015 Y83.316 E8.82865
G1 X76.684 Y83.985 E8.86358
G1 X76.197 Y83.985 E8.88155
G1 X76.015 Y83.803 E8.89107
G1 E7.39107 F3600.00000
G92 E0
G1 X84.129 Y115.871 F5400.000
G1 E1.50000 F3600.00000
G1 X84.129 Y124.129 E1.79727 F960.000
G1 X75.871 Y124.129 E2.09454
G1 X75.871 Y115.871 E2.39181
G1 X84.069 Y115.871 E2.68692
G1 X84.464 Y115.536 F5400.000
G1 X84.464 Y124.464 E3.00835 F960.000
G1 X75.536 Y124.464 E3.32979
G1 X75.536 Y115.536 E3.65122
G1 X84.404 Y115.536 E3.97050
G1 X84.800 Y115.200 F5400.000
G1 X84.800 Y124.800 E4.31609 F960.000
G1 X75.200 Y124.800 E4.66169
G1 X75.200 Y115.200 E5.00729
G1 X84.740 Y115.200 E5.35073
G1 X84.600 Y115.546 F5400.000
G1 E3.85073 F3600.00000
G92 E0
G1 X83.985 Y116.197 F5400.000
G1 E1.50000 F3600.00000
G1 X83.803 Y116.015 E1.50952 F2400.000
G1 X83.316 Y116.015 E1.52749
G1 X83.985 Y116.684 E1.56243
G1 X83.985 Y117.171 E1.58039
G1 X82.829 Y116.015 E1.64074
G1 X82.342 Y116.015 E1.65871
G1 X83.985 Y117.658 E1.74447
G1 X83.985 Y118.144 E1.76243
G1 X81.856 Y116.015 E1.87360
G1 X81.369 Y116.015 E1.89157
G1 X83.985 Y118.631 E2.02815
G1 X83.985 Y119.118 E2.04612
G1 X80.882 Y116.015 E2.20811
G1 X80.396 Y116.015 E2.22608
G1 X83.985 Y119.604 E2.41349
G1 X83.985 Y120.091 E2.43146
G1 X79.909 Y116.015 E2.64427
G1 X79.422 Y116.015 E2.66224
G1 X83.985 Y120.578 E2.90047
G1 X83.985 Y121.065 E2.91844
G1 X78.935 Y116.015 E3.18208
G1 X78.449 Y116.015 E3.20004
G1 X83.985 Y121.551 E3.48910
G1 X83.985 Y122.038 E3.50706
G1 X77.962 Y116.015 E3.82153
G1 X77.475 Y116.015 E3.83950
G1 X83.985 Y122.525 E4.17937
G1 X83.985 Y123.012 E4.19734
G1 X76.988 Y116.015 E4.56262
G1 X76.502 Y116.015 E4.58059
G1 X83.985 Y123.498 E4.97129
G1 X83.965 Y123.965 E4.98854
G1 X76.035 Y116.035 E5.40256
G1 X76.015 Y116.502 E5.41980
G1 X83.498 Y123.985 E5.81050
G1 X83.012 Y123.985 E5.82847
G1 X76.015 Y116.988 E6.19375
G1 X76.015 Y117.475 E6.21172
G1 X82.525 Y123.985 E6.55159
G1 X82.038 Y123.985 E6.56956
G1 X76.015 Y117.962 E6.88402
G1 X76.015 Y118.449 E6.90199
G1 X81.551 Y123.985 E7.19104
G1 X81.065 Y123.985 E7.20901
G1 X76.015 Y118.935 E7.47265
G1 X76.015 Y119.422 E7.49062
G1 X80.578 Y123.985 E7.72884
G1 X80.091 Y123.985 E7.74681
G1 X76.015 Y119.909 E7.95963
G1 X76.015 Y120.396 E7.97760
G1 X79.604 Y123.985 E8.16500
G1 X79.118 Y123.985 E8.18297
G1 X76.015 Y120.882 E8.34496
G1 X76.015 Y121.369 E8.36293
G1 X78.631 Y123.985 E8.49951
G1 X78.144 Y123.985 E8.51748
G1 X76.015 Y121.856 E8.62864
G1 X76.015 Y122.342 E8.64661
G1 X77.658 Y123.985 E8.73237
G1 X77.171 Y123.985 E8.75034
G1 X76.015 Y122.829 E8.81068
G1 X76.015 Y123.316 E8.82865
G1 X76.684 Y123.985 E8.86358
G1 X76.197 Y123.985 E8.88155
G1 X76.015 Y123.803 E8.89107
G1 E7.39107 F3600.00000
G92 E0
G1 Z0.570 F5400.000
G1 X115.884 Y115.884 F5400.000
G1 E1.50000 F3600.00000
G1 X124.116 Y115.884 E1.77182 F1200.000
G1 X124.116 Y124.116 E2.04365
G1 X115.884 Y124.116 E2.31547
G1 X115.884 Y115.944 E2.58532
G1 X115.542 Y115.542 F5400.000
G1 X124.458 Y115.542 E2.87973 F1200.000
G1 X124.458 Y124.458 E3.17415
G1 X115.542 Y124.458 E3.46856
G1 X115.542 Y115.602 E3.76100
G1 X115.200 Y115.200 F5400.000
G1 X124.800 Y115.200 E4.07800 F1200.000
G1 X124.800 Y124.800 E4.39501
G1 X115.200 Y124.800 E4.71201
G1 X115.200 Y115.260 E5.02704
G1 X115.546 Y115.400 F5400.000
G1 E3.52704 F3600.00000
G92 E0
G1 X116.048 Y116.285 F5400.000
G1 E1.50000 F3600.00000
G1 X116.285 Y116.048 E1.51528 F3000.000
G1 X116.952 Y116.048 E1.54562
G1 X116.048 Y116.952 E1.60381
G1 X116.048 Y117.619 E1.63415
G1 X117.619 Y116.048 E1.73524
G1 X118.285 Y116.048 E1.76557
G1 X116.048 Y118.285 E1.90957
G1 X116.048 Y118.952 E1.93991
G1 X118.952 Y116.048 E2.12681
G1 X119.619 Y116.048 E2.15715
G1 X116.048 Y119.619 E2.38695
G1 X116.048 Y120.285 E2.41729
G1 X120.285 Y116.048 E2.69000
G1 X120.952 Y116.048 E2.72034
G1 X116.048 Y120.952 E3.03595
G1 X116.048 Y121.619 E3.06629
G1 X121.619 Y116.048 E3.42481
G1 X122.285 Y116.048 E3.45515
G1 X116.048 Y122.285 E3.85657
G1 X116.048 Y122.952 E3.88691
G1 X122.952 Y116.048 E4.33124
G1 X123.619 Y116.048 E4.36158
G1 X116.048 Y123.619 E4.84881
G1 X116.381 Y123.952 E4.87026
G1 X123.952 Y116.381 E5.35750
G1 X123.952 Y117.048 E5.38783
G1 X117.048 Y123.952 E5.83216
G1 X117.715 Y123.952 E5.86250
G1 X123.952 Y117.715 E6.26392
G1 X123.952 Y118.381 E6.29426
G1 X118.381 Y123.952 E6.65278
G1 X119.048 Y123.952 E6.68312
G1 X123.952 Y119.048 E6.99873
G1 X123.952 Y119.715 E7.02907
G1 X119.715 Y123.952 E7.30178
G1 X120.381 Y123.952 E7.33212
G1 X123.952 Y120.381 E7.56193
G1 X123.952 Y121.048 E7.59226
G1 X121.048 Y123.952 E7.77917
G1 X121.715 Y123.952 E7.80950
G1 X123.952 Y121.715 E7.95350
G1 X123.952 Y122.381 E7.98384
G1 X122.381 Y123.952 E8.08493
G1 X123.048 Y123.952 E8.11527
G1 X123.952 Y123.048 E8.17345
G1 X123.952 Y123.715 E8.20379
G1 X123.715 Y123.952 E8.21908
G1 E6.71908 F3600.00000
G92 E0
G1 X115.884 Y84.116 F5400.000
G1 E1.50000 F3600.00000
G1 X115.884 Y75.884 E1.77182 F1200.000
G1 X124.116 Y75.884 E2.04365
G1 X124.116 Y84.116 E2.31547
G1 X115.944 Y84.116 E2.58532
G1 X115.542 Y84.458 F5400.000
G1 X115.542 Y75.542 E2.87973 F1200.000
G1 X124.458 Y75.542 E3.17415
G1 X124.458 Y84.458 E3.46856
G1 X115.602 Y84.458 E3.76100
G1 X115.200 Y84.800 F5400.000
G1 X115.200 Y75.200 E4.07800 F1200.000
G1 X124.800 Y75.200 E4.39501
G1 X124.800 Y84.800 E4.71201
G1 X115.260 Y84.800 E5.02704
G1 X115.400 Y84.454 F5400.000
G1 E3.52704 F3600.00000
G92 E0
G1 X123.715 Y83.952 F5400.000
G1 E1.50000 F3600.00000
G1 X123.952 Y83.715 E1.51528 F3000.000
G1 X123.952 Y83.048 E1.54562
G1 X123.048 Y83.952 E1.60381
G1 X122.381 Y83.952 E1.63415
G1 X123.952 Y82.381 E1.73524
G1 X123.952 Y81.715 E1.76558
G1 X121.715 Y83.952 E1.90957
G1 X121.048 Y83.952 E1.93991
G1 X123.952 Y81.048 E2.12681
G1 X123.952 Y80.381 E2.15715
G1 X120.381 Y83.952 E2.38696
G1 X119.715 Y83.952 E2.41729
G1 X123.952 Y79.715 E2.69000
G1 X123.952 Y79.048 E2.72034
G1 X119.048 Y83.952 E3.03596
G1 X118.381 Y83.952 E3.06629
G1 X123.952 Y78.381 E3.42481
G1 X123.952 Y77.715 E3.45515
G1 X117.715 Y83.952 E3.85658
G1 X117.048 Y83.952 E3.88691
G1 X123.952 Y77.048 E4.33124
G1 X123.952 Y76.381 E4.36158
G1 X116.381 Y83.952 E4.84881
