; generated by Slic3r 1.2.9 on 2016-03-02 at 14:09:10

; external perimeters extrusion width = 0.40mm
; perimeters extrusion width = 0.40mm
; infill extrusion width = 1.42mm
; solid infill extrusion width = 0.68mm
; top infill extrusion width = 0.40mm

M190 S100 ; set bed temperature
M104 S250 ; set temperature
M42 S1 ; enciende el LED
G4 P500;
M42 S0 ; apaga el LED
G4 P500;
M42 S1 ; enciende el LED
G4 P100;
M42 S0 ; apaga el LED
G4 P100;
M42 S1 ; enciende el LED
G4 P100;
M42 S0 ; apaga el LED
G4 P400;
M42 S1 ; enciende el LED
G4 P500;
M42 S0 ; apaga el LED

G28 ; home all axes
M109 S250 ; wait for temperature to be reached
G21 ; set units to millimeters
G90 ; use absolute coordinates
M82 ; use absolute distances for extrusion
G92 E0
G1 E-1.50000 F3600.00000
G92 E0
G1 Z0.300 F5400.000
G1 X83.957 Y83.569 F5400.000
G1 E1.50000 F3600.00000
M204 S1000
G1 X84.340 Y83.209 E1.51913 F2160.000
G1 X85.622 Y82.093 E1.58105
G1 X87.110 Y80.994 E1.64840
G1 X88.355 Y80.207 E1.70207
G1 X89.956 Y79.349 E1.76821
G1 X90.325 Y79.173 E1.78311
G1 X91.681 Y78.595 E1.83678
G1 X93.430 Y77.995 E1.90413
G1 X94.258 Y77.775 E1.93531
G1 X95.591 Y77.462 E1.98517
G1 X97.013 Y77.231 E2.03764
G1 X97.408 Y77.184 E2.05213
G1 X97.783 Y77.169 E2.06581
G1 X102.226 Y77.169 E2.22760
G1 X102.975 Y77.229 E2.25498
G1 X104.778 Y77.538 E2.32157 F2160.000
G1 X106.208 Y77.890 E2.37524
G1 X107.967 Y78.462 E2.44259
G1 X109.675 Y79.173 E2.50994
G1 X111.319 Y80.019 E2.57729
G1 X112.890 Y80.994 E2.64465
G1 X114.378 Y82.093 E2.71200
G1 X115.772 Y83.308 E2.77936
G1 X117.064 Y84.631 E2.84670
G1 X118.232 Y86.038 E2.91330
G1 X118.659 Y86.656 E2.94065
G1 X120.878 Y90.499 E3.10224
G1 X121.197 Y91.170 E3.12932
G1 X121.722 Y92.549 E3.18307
G1 X122.252 Y94.322 E3.25044
G1 X122.636 Y96.131 E3.31778
G1 X122.874 Y97.965 E3.38514
G1 X122.964 Y99.812 E3.45249
G1 X122.905 Y101.661 E3.51986
G1 X122.697 Y103.499 E3.58721
G1 X122.348 Y105.281 E3.65334
G1 X122.252 Y105.678 E3.66824
G1 X121.842 Y107.094 E3.72190
G1 X121.207 Y108.809 E3.78850
G1 X120.885 Y109.488 E3.81588
G1 X118.659 Y113.343 E3.97800
G1 X118.232 Y113.962 E4.00538
G1 X117.064 Y115.369 E4.07198
G1 X115.772 Y116.692 E4.13933
G1 X114.378 Y117.907 E4.20668
G1 X112.890 Y119.006 E4.27404
G1 X111.319 Y119.981 E4.34139
G1 X109.675 Y120.827 E4.40874
G1 X107.967 Y121.538 E4.47609
G1 X106.570 Y122.005 E4.52976
G1 X104.778 Y122.462 E4.59711
G1 X102.975 Y122.771 E4.66370
G1 X102.226 Y122.831 E4.69108
G1 X97.774 Y122.831 E4.85321
G1 X97.025 Y122.771 E4.88058
G1 X95.222 Y122.462 E4.94718
G1 X93.430 Y122.005 E5.01453
G1 X91.681 Y121.405 E5.08189
G1 X89.986 Y120.666 E5.14924
G1 X88.355 Y119.793 E5.21659
G1 X86.800 Y118.792 E5.28394
G1 X85.331 Y117.669 E5.35129
G1 X83.957 Y116.431 E5.41865
G1 X82.687 Y115.087 E5.48600
G1 X81.768 Y113.962 E5.53890
G1 X81.341 Y113.343 E5.56627
G1 X79.115 Y109.488 E5.72841
G1 X78.793 Y108.809 E5.75578
G1 X78.158 Y107.094 E5.82238
G1 X77.748 Y105.678 E5.87605
G1 X77.364 Y103.869 E5.94340
G1 X77.303 Y103.498 E5.95710
G1 X77.095 Y101.660 E6.02445
G1 X77.036 Y99.812 E6.09180
G1 X77.126 Y97.965 E6.15915
G1 X77.364 Y96.131 E6.22650
G1 X77.748 Y94.322 E6.29386
G1 X78.277 Y92.550 E6.36121
G1 X78.936 Y90.857 E6.42735
G1 X79.120 Y90.504 E6.44184
G1 X81.341 Y86.657 E6.60363
G1 X81.768 Y86.038 E6.63101
G1 X82.687 Y84.913 E6.68391
G1 X83.915 Y83.612 E6.74908
G1 X84.199 Y83.801 F5400.000
G1 X84.562 Y83.460 E6.76723 F2160.000
G1 X85.824 Y82.361 E6.82816
G1 X87.289 Y81.278 E6.89453
G1 X88.535 Y80.490 E6.94820
G1 X90.112 Y79.646 E7.01335
G1 X90.457 Y79.481 E7.02727
G1 X91.813 Y78.904 E7.08094
G1 X93.537 Y78.313 E7.14730
G1 X94.338 Y78.101 E7.17750
G1 X95.645 Y77.794 E7.22638
G1 X97.067 Y77.563 E7.27885
G1 X97.435 Y77.519 E7.29235
G1 X97.783 Y77.505 E7.30505
G1 X102.226 Y77.505 E7.46684
G1 X102.921 Y77.561 E7.49225
G1 X104.697 Y77.864 E7.55786 F2160.000
G1 X106.128 Y78.216 E7.61152
G1 X107.861 Y78.780 E7.67789
G1 X109.543 Y79.481 E7.74426
G1 X111.163 Y80.316 E7.81063
G1 X112.711 Y81.278 E7.87700
G1 X114.176 Y82.361 E7.94337
G1 X115.550 Y83.559 E8.00974
G1 X116.822 Y84.864 E8.07610
G1 X117.972 Y86.250 E8.14172
G1 X118.368 Y86.824 E8.16711
G1 X120.587 Y90.667 E8.32869
G1 X120.883 Y91.290 E8.35383
G1 X121.409 Y92.668 E8.40755
G1 X121.929 Y94.415 E8.47394
G1 X122.308 Y96.198 E8.54030
G1 X122.541 Y98.005 E8.60668
G1 X122.629 Y99.825 E8.67304
G1 X122.569 Y101.647 E8.73942
G1 X122.364 Y103.458 E8.80579
G1 X122.019 Y105.214 E8.87094
G1 X121.929 Y105.585 E8.88485
G1 X121.519 Y107.000 E8.93852
G1 X120.894 Y108.690 E9.00413
G1 X120.595 Y109.320 E9.02954
G1 X118.369 Y113.175 E9.19167
G1 X117.972 Y113.750 E9.21708
G1 X116.822 Y115.136 E9.28269
G1 X115.550 Y116.441 E9.34905
G1 X114.176 Y117.639 E9.41543
G1 X112.711 Y118.722 E9.48179
G1 X111.163 Y119.684 E9.54816
G1 X109.543 Y120.519 E9.61453
G1 X107.861 Y121.220 E9.68090
G1 X106.128 Y121.784 E9.74727
G1 X104.697 Y122.136 E9.80093
G1 X102.921 Y122.439 E9.86654
G1 X102.226 Y122.495 E9.89196
G1 X97.774 Y122.495 E10.05408
G1 X97.079 Y122.439 E10.07949
G1 X95.303 Y122.136 E10.14510
G1 X93.537 Y121.687 E10.21147
G1 X91.813 Y121.096 E10.27784
G1 X90.142 Y120.369 E10.34421
G1 X88.534 Y119.510 E10.41058
G1 X87.002 Y118.524 E10.47695
G1 X85.553 Y117.418 E10.54331
G1 X84.199 Y116.199 E10.60968
G1 X82.946 Y114.875 E10.67605
G1 X82.028 Y113.750 E10.72896
G1 X81.631 Y113.176 E10.75436
G1 X79.405 Y109.320 E10.91649
G1 X79.106 Y108.690 E10.94190
G1 X78.481 Y107.000 E11.00752
G1 X78.071 Y105.585 E11.06118
G1 X77.692 Y103.802 E11.12755
G1 X77.636 Y103.458 E11.14026
G1 X77.431 Y101.647 E11.20663
G1 X77.371 Y99.826 E11.27300
G1 X77.459 Y98.005 E11.33937
G1 X77.692 Y96.198 E11.40573
G1 X78.071 Y94.415 E11.47210
G1 X78.591 Y92.669 E11.53847
G1 X79.239 Y91.001 E11.60363
G1 X79.410 Y90.672 E11.61714
G1 X81.631 Y86.825 E11.77892
G1 X82.028 Y86.250 E11.80433
G1 X82.946 Y85.125 E11.85724
G1 X84.157 Y83.844 E11.92142
G1 E10.42142 F3600.00000
G92 E0
G1 X85.026 Y84.596 F5400.000
G1 E1.50000 F3600.00000
G1 X86.362 Y83.398 E1.56535 F2160.000
G1 X87.848 Y82.282 E1.63303
G1 X89.202 Y81.426 E1.69137
G1 X90.645 Y80.662 E1.75084
G1 X92.321 Y79.934 E1.81738
G1 X94.084 Y79.345 E1.88507
G1 X95.765 Y78.936 E1.94808
G1 X97.314 Y78.685 E2.00522
G1 X97.599 Y78.657 E2.01565
G1 X99.267 Y78.666 E2.07639
G1 X102.354 Y78.652 E2.18883 F2160.000
G1 X102.610 Y78.672 E2.19819
G1 X104.360 Y78.962 E2.26279
G1 X106.039 Y79.381 E2.32580
G1 X107.679 Y79.934 E2.38881
G1 X109.268 Y80.617 E2.45183
G1 X110.798 Y81.426 E2.51484
G1 X112.152 Y82.282 E2.57318
G1 X113.538 Y83.317 E2.63619
G1 X114.837 Y84.461 E2.69921
G1 X116.039 Y85.705 E2.76221
G1 X117.165 Y87.075 E2.82681
G1 X117.311 Y87.287 E2.83616
G1 X119.657 Y91.350 E3.00704
G1 X119.766 Y91.580 E3.01630
G1 X120.400 Y93.257 E3.08160
G1 X120.845 Y94.796 E3.13995
G1 X121.196 Y96.490 E3.20295
G1 X121.410 Y98.207 E3.26597
G1 X121.485 Y99.936 E3.32897
G1 X121.420 Y101.665 E3.39200
G1 X121.217 Y103.383 E3.45501
G1 X120.876 Y105.080 E3.51802
G1 X120.400 Y106.743 E3.58102
G1 X119.775 Y108.403 E3.64563
G1 X119.665 Y108.635 E3.65500
G1 X117.312 Y112.711 E3.82640
G1 X117.165 Y112.924 E3.83580
G1 X116.039 Y114.295 E3.90042
G1 X114.837 Y115.539 E3.96343
G1 X113.538 Y116.683 E4.02645
G1 X112.152 Y117.718 E4.08946
G1 X110.798 Y118.574 E4.14780
G1 X109.268 Y119.383 E4.21081
G1 X107.679 Y120.066 E4.27383
G1 X106.039 Y120.619 E4.33684
G1 X104.361 Y121.038 E4.39984
G1 X102.610 Y121.328 E4.46445
G1 X102.354 Y121.348 E4.47381
G1 X100.733 Y121.334 E4.53285
G1 X97.646 Y121.348 E4.64529
G1 X97.390 Y121.328 E4.65465
G1 X95.640 Y121.038 E4.71925
G1 X93.961 Y120.619 E4.78226
G1 X92.321 Y120.066 E4.84527
G1 X90.731 Y119.383 E4.90829
G1 X89.202 Y118.574 E4.97130
G1 X87.742 Y117.645 E5.03431
G1 X86.362 Y116.602 E5.09732
G1 X85.071 Y115.450 E5.16034
G1 X83.876 Y114.199 E5.22335
G1 X82.835 Y112.925 E5.28327
G1 X82.689 Y112.713 E5.29262
G1 X80.335 Y108.635 E5.46411
G1 X80.225 Y108.403 E5.47347
G1 X79.641 Y106.865 E5.53339
G1 X79.155 Y105.204 E5.59641
G1 X78.783 Y103.383 E5.66409
G1 X78.580 Y101.665 E5.72711
G1 X78.515 Y99.936 E5.79012
G1 X78.590 Y98.207 E5.85313
G1 X78.804 Y96.490 E5.91614
G1 X79.155 Y94.796 E5.97916
G1 X79.641 Y93.135 E6.04217
G1 X80.248 Y91.550 E6.10397
G1 X80.383 Y91.281 E6.11497
G1 X81.158 Y89.968 E6.17047
G1 X82.688 Y87.289 E6.28284
G1 X82.835 Y87.076 E6.29225
G1 X83.876 Y85.801 E6.35219
G1 X84.985 Y84.639 E6.41069
G1 X85.268 Y84.828 F5400.000
G1 X86.580 Y83.654 E6.47481 F2160.000
G1 X87.939 Y82.627 E6.53683
G1 X89.376 Y81.713 E6.59887
G1 X90.985 Y80.868 E6.66507
G1 X92.554 Y80.205 E6.72710
G1 X94.171 Y79.670 E6.78913
G1 X95.826 Y79.267 E6.85116
G1 X97.361 Y79.017 E6.90780
G1 X97.747 Y78.987 E6.92190
G1 X99.267 Y79.002 E6.97725 F2160.000
G1 X102.341 Y78.987 E7.08920
G1 X102.570 Y79.006 E7.09757
G1 X104.174 Y79.267 E7.15676
G1 X105.829 Y79.670 E7.21878
G1 X107.446 Y80.205 E7.28081
G1 X109.015 Y80.868 E7.34284
G1 X110.624 Y81.713 E7.40905
G1 X112.061 Y82.627 E7.47108
G1 X113.420 Y83.654 E7.53311
G1 X114.692 Y84.787 E7.59514
G1 X115.869 Y86.018 E7.65716
G1 X116.896 Y87.277 E7.71634
G1 X117.027 Y87.466 E7.72471
G1 X119.359 Y91.506 E7.89461
G1 X119.457 Y91.712 E7.90289
G1 X120.043 Y93.248 E7.96276
G1 X120.521 Y94.883 E8.02481
G1 X120.866 Y96.551 E8.08682
G1 X121.076 Y98.241 E8.14886
G1 X121.149 Y99.942 E8.21088
G1 X121.085 Y101.645 E8.27292
G1 X120.885 Y103.336 E8.33495
G1 X120.548 Y105.006 E8.39697
G1 X120.079 Y106.643 E8.45899
G1 X119.466 Y108.271 E8.52237
G1 X119.368 Y108.479 E8.53075
G1 X117.028 Y112.532 E8.70117
G1 X116.897 Y112.722 E8.70959
G1 X115.869 Y113.981 E8.76878
G1 X114.692 Y115.213 E8.83082
G1 X113.420 Y116.346 E8.89285
G1 X112.061 Y117.373 E8.95488
G1 X110.525 Y118.345 E9.02108
G1 X109.015 Y119.132 E9.08311
G1 X107.446 Y119.795 E9.14514
G1 X105.829 Y120.330 E9.20717
G1 X104.174 Y120.733 E9.26920
G1 X102.570 Y120.994 E9.32838
G1 X102.341 Y121.013 E9.33676
G1 X100.733 Y120.998 E9.39531
G1 X97.659 Y121.013 E9.50726
G1 X97.430 Y120.994 E9.51563
G1 X95.826 Y120.733 E9.57482
G1 X94.171 Y120.330 E9.63685
G1 X92.554 Y119.795 E9.69887
G1 X90.985 Y119.132 E9.76091
G1 X89.475 Y118.345 E9.82292
G1 X88.033 Y117.438 E9.88496
G1 X86.669 Y116.419 E9.94699
G1 X85.391 Y115.293 E10.00902
G1 X84.208 Y114.068 E10.07104
G1 X83.104 Y112.723 E10.13440
G1 X82.973 Y112.534 E10.14278
G1 X80.632 Y108.479 E10.31328
G1 X80.534 Y108.271 E10.32165
G1 X79.921 Y106.643 E10.38502
G1 X79.452 Y105.006 E10.44705
G1 X79.115 Y103.336 E10.50908
G1 X78.924 Y101.759 E10.56692
G1 X78.851 Y100.058 E10.62895
G1 X78.915 Y98.355 E10.69098
G1 X79.115 Y96.664 E10.75301
G1 X79.452 Y94.994 E10.81504
G1 X79.921 Y93.357 E10.87706
G1 X80.554 Y91.688 E10.94207
G1 X80.676 Y91.445 E10.95199
G1 X81.448 Y90.136 E11.00733
G1 X82.972 Y87.468 E11.11921
G1 X83.103 Y87.278 E11.12764
G1 X84.131 Y86.019 E11.18684
G1 X85.227 Y84.872 E11.24460
G1 X85.510 Y85.061 F5400.000
G1 X86.797 Y83.910 E11.30749 F2160.000
G1 X88.218 Y82.842 E11.37222
G1 X89.549 Y82.000 E11.42957
G1 X90.957 Y81.257 E11.48756
G1 X92.572 Y80.557 E11.55165
G1 X94.161 Y80.022 E11.61269
G1 X95.886 Y79.597 E11.67742
G1 X97.408 Y79.349 E11.73358
G1 X97.638 Y79.327 E11.74198
G1 X99.267 Y79.338 E11.80131
G1 X102.327 Y79.323 E11.91276 F2160.000
G1 X102.529 Y79.339 E11.92015
G1 X104.213 Y79.617 E11.98229
G1 X105.839 Y80.022 E12.04333
G1 X107.428 Y80.557 E12.10437
G1 X108.968 Y81.218 E12.16542
G1 X110.451 Y82.000 E12.22646
G1 X111.782 Y82.842 E12.28381
G1 X113.124 Y83.846 E12.34486
G1 X114.382 Y84.954 E12.40591
G1 X115.546 Y86.160 E12.46694
G1 X116.628 Y87.479 E12.52908
G1 X116.743 Y87.646 E12.53646
G1 X119.062 Y91.663 E12.70538
G1 X119.148 Y91.844 E12.71269
G1 X119.759 Y93.457 E12.77550
G1 X120.197 Y94.970 E12.83286
G1 X120.536 Y96.611 E12.89390
G1 X120.742 Y98.275 E12.95494
G1 X120.814 Y99.949 E13.01598
G1 X120.750 Y101.624 E13.07703
G1 X120.552 Y103.289 E13.13808
G1 X120.221 Y104.932 E13.19912
G1 X119.759 Y106.543 E13.26016
G1 X119.157 Y108.140 E13.32230
G1 X119.070 Y108.323 E13.32969
G1 X116.744 Y112.353 E13.49914
G1 X116.628 Y112.521 E13.50657
G1 X115.546 Y113.840 E13.56872
G1 X114.382 Y115.046 E13.62976
G1 X113.124 Y116.154 E13.69081
G1 X111.865 Y117.101 E13.74816
G1 X110.451 Y118.000 E13.80920
G1 X108.969 Y118.782 E13.87025
G1 X107.428 Y119.443 E13.93130
G1 X105.839 Y119.978 E13.99234
G1 X104.213 Y120.383 E14.05337
G1 X102.529 Y120.661 E14.11552
G1 X102.327 Y120.677 E14.12291
G1 X100.733 Y120.662 E14.18097
G1 X97.673 Y120.677 E14.29242
G1 X97.470 Y120.661 E14.29981
G1 X95.787 Y120.383 E14.36195
G1 X94.161 Y119.978 E14.42299
G1 X92.572 Y119.443 E14.48404
G1 X91.031 Y118.782 E14.54508
G1 X89.549 Y118.000 E14.60612
G1 X88.135 Y117.101 E14.66717
G1 X86.797 Y116.090 E14.72821
G1 X85.545 Y114.976 E14.78926
G1 X84.387 Y113.764 E14.85030
G1 X83.372 Y112.521 E14.90874
G1 X83.257 Y112.354 E14.91613
G1 X80.930 Y108.323 E15.08564
G1 X80.843 Y108.140 E15.09303
G1 X80.274 Y106.639 E15.15147
G1 X79.803 Y105.030 E15.21253
G1 X79.464 Y103.389 E15.27357
G1 X79.258 Y101.725 E15.33461
G1 X79.186 Y99.949 E15.39934
G1 X79.258 Y98.275 E15.46039
G1 X79.464 Y96.611 E15.52143
G1 X79.803 Y94.970 E15.58248
G1 X80.274 Y93.361 E15.64352
G1 X80.860 Y91.826 E15.70336
G1 X80.969 Y91.609 E15.71220
G1 X81.739 Y90.304 E15.76739
G1 X83.256 Y87.648 E15.87879
G1 X83.372 Y87.479 E15.88622
G1 X84.387 Y86.236 E15.94468
G1 X85.469 Y85.104 E16.00171
G1 X85.752 Y85.293 F5400.000
G1 X87.015 Y84.165 E16.06336 F2160.000
G1 X88.331 Y83.172 E16.12342
G1 X89.723 Y82.287 E16.18348
G1 X91.261 Y81.480 E16.24673
G1 X92.779 Y80.837 E16.30679
G1 X94.345 Y80.318 E16.36685
G1 X95.947 Y79.927 E16.42691
G1 X97.455 Y79.682 E16.48257
G1 X97.756 Y79.659 E16.49354
G1 X99.267 Y79.673 E16.54858 F2160.000
G1 X102.314 Y79.659 E16.65954
G1 X102.489 Y79.673 E16.66594
G1 X104.053 Y79.927 E16.72365
G1 X105.655 Y80.318 E16.78371
G1 X107.221 Y80.837 E16.84377
G1 X108.819 Y81.518 E16.90703
G1 X110.277 Y82.287 E16.96708
G1 X111.669 Y83.172 E17.02714
G1 X112.985 Y84.165 E17.08720
G1 X114.217 Y85.262 E17.14726
G1 X115.357 Y86.453 E17.20732
G1 X116.359 Y87.681 E17.26503
G1 X116.459 Y87.825 E17.27142
G1 X118.765 Y91.819 E17.43936
G1 X118.839 Y91.976 E17.44570
G1 X119.410 Y93.473 E17.50406
G1 X119.873 Y95.057 E17.56413
G1 X120.206 Y96.672 E17.62418
G1 X120.408 Y98.308 E17.68424
G1 X120.478 Y99.956 E17.74430
G1 X120.415 Y101.604 E17.80436
G1 X120.220 Y103.242 E17.86443
G1 X119.893 Y104.858 E17.92448
G1 X119.438 Y106.443 E17.98454
G1 X118.848 Y108.008 E18.04545
G1 X118.773 Y108.167 E18.05186
G1 X116.460 Y112.173 E18.22033
G1 X116.360 Y112.319 E18.22676
G1 X115.357 Y113.546 E18.28448
G1 X114.217 Y114.738 E18.34454
G1 X112.985 Y115.835 E18.40461
G1 X111.669 Y116.828 E18.46466
G1 X110.201 Y117.756 E18.52792
G1 X108.739 Y118.520 E18.58798
G1 X107.221 Y119.163 E18.64804
G1 X105.655 Y119.682 E18.70810
G1 X104.053 Y120.073 E18.76816
G1 X102.489 Y120.327 E18.82587
G1 X102.314 Y120.341 E18.83227
G1 X100.733 Y120.327 E18.88984
G1 X97.686 Y120.341 E19.00080
G1 X97.511 Y120.327 E19.00720
G1 X95.947 Y120.073 E19.06492
G1 X94.345 Y119.682 E19.12497
G1 X92.779 Y119.163 E19.18503
G1 X91.261 Y118.520 E19.24509
G1 X89.799 Y117.757 E19.30514
G1 X88.403 Y116.878 E19.36521
G1 X87.083 Y115.890 E19.42527
G1 X85.846 Y114.799 E19.48533
G1 X84.701 Y113.612 E19.54538
G1 X83.641 Y112.319 E19.60629
G1 X83.541 Y112.175 E19.61269
G1 X81.227 Y108.167 E19.78122
G1 X81.152 Y108.008 E19.78763
G1 X80.562 Y106.443 E19.84853
G1 X80.106 Y104.858 E19.90859
G1 X79.780 Y103.242 E19.96865
G1 X79.592 Y101.692 E20.02551
G1 X79.522 Y100.044 E20.08557
G1 X79.585 Y98.396 E20.14563
G1 X79.780 Y96.758 E20.20569
G1 X80.107 Y95.142 E20.26575
G1 X80.562 Y93.557 E20.32581
